; Laser Vector Engraving G-code
; Generated: 2025-12-20 11:21:51 UTC
; Input file: /home/thawkins/Projects/gcodekit5/assets/svg/tigershead.svg
; File type: SVG
; Feed rate: 600 mm/min
; Travel rate: 3000 mm/min
; Cut power: 100%
; Engrave power: 50%
; Number of paths: 37
; Estimated time: 2692.9 seconds
;
G21 ; Set units to millimeters
G90 ; Absolute positioning
G17 ; XY plane selection

; Home and set work coordinate system
 ; Home all axes (bottom-left corner)
G10 L2 P1 X0 Y0 Z0 ; Clear G54 offset
G54 ; Select work coordinate system 1
G0 X10.0 Y10.0 ; Move to work origin
G10 L20 P1 X0 Y0 Z0 ; Set current position as work zero
G0 Z5.00 F3000 ; Move to safe height

M5 ; Laser off

M5 ; Laser off
G0 X42.756 Y21.719 ; Move to hatch start
G1 X46.231 Y25.193 F600 M3 S1000
M5 ; Laser off
G0 X42.218 Y22.877 ; Move to hatch start
G1 X44.109 Y24.768 F600 M3 S1000
M5 ; Laser off
G0 X45.055 Y25.714 ; Move to hatch start
G1 X46.672 Y27.331 F600 M3 S1000
M5 ; Laser off
G0 X42.877 Y25.234 ; Move to hatch start
G1 X43.129 Y25.485 F600 M3 S1000
M5 ; Laser off
G0 X45.035 Y27.392 ; Move to hatch start
G1 X46.771 Y29.127 F600 M3 S1000
M5 ; Laser off
G0 X44.819 Y28.872 ; Move to hatch start
G1 X46.677 Y30.730 F600 M3 S1000
M5 ; Laser off
G0 X44.530 Y30.281 ; Move to hatch start
G1 X46.441 Y32.191 F600 M3 S1000
M5 ; Laser off
G0 X44.197 Y31.644 ; Move to hatch start
G1 X46.012 Y33.459 F600 M3 S1000
M5 ; Laser off
G0 X46.287 Y33.734 ; Move to hatch start
G1 X46.930 Y34.377 F600 M3 S1000
M5 ; Laser off
G0 X43.795 Y32.940 ; Move to hatch start
G1 X46.614 Y35.758 F600 M3 S1000
M5 ; Laser off
G0 X43.336 Y34.178 ; Move to hatch start
G1 X43.851 Y34.693 F600 M3 S1000
M5 ; Laser off
G0 X44.742 Y35.584 ; Move to hatch start
G1 X46.199 Y37.041 F600 M3 S1000
M5 ; Laser off
G0 X44.169 Y36.708 ; Move to hatch start
G1 X45.690 Y38.228 F600 M3 S1000
M5 ; Laser off
G0 X43.572 Y37.807 ; Move to hatch start
G1 X45.109 Y39.345 F600 M3 S1000
M5 ; Laser off
G0 X42.934 Y38.867 ; Move to hatch start
G1 X44.466 Y40.399 F600 M3 S1000
M5 ; Laser off
G0 X42.265 Y39.895 ; Move to hatch start
G1 X44.485 Y42.114 F600 M3 S1000
M5 ; Laser off
G0 X41.598 Y40.925 ; Move to hatch start
G1 X43.746 Y43.073 F600 M3 S1000
M5 ; Laser off
G0 X41.419 Y42.443 ; Move to hatch start
G1 X42.961 Y43.985 F600 M3 S1000
M5 ; Laser off
G0 X40.692 Y43.413 ; Move to hatch start
G1 X42.138 Y44.859 F600 M3 S1000
M5 ; Laser off
G0 X39.950 Y44.368 ; Move to hatch start
G1 X41.304 Y45.722 F600 M3 S1000
M5 ; Laser off
G0 X39.204 Y45.319 ; Move to hatch start
G1 X40.784 Y46.899 F600 M3 S1000
M5 ; Laser off
G0 X38.488 Y46.301 ; Move to hatch start
G1 X45.392 Y53.204 F600 M3 S1000
M5 ; Laser off
G0 X37.810 Y47.319 ; Move to hatch start
G1 X38.115 Y47.624 F600 M3 S1000
M5 ; Laser off
G0 X38.702 Y48.211 ; Move to hatch start
G1 X45.518 Y55.027 F600 M3 S1000
M5 ; Laser off
G0 X38.125 Y49.332 ; Move to hatch start
G1 X45.253 Y56.460 F600 M3 S1000
M5 ; Laser off
G0 X37.486 Y50.389 ; Move to hatch start
G1 X44.777 Y57.680 F600 M3 S1000
M5 ; Laser off
G0 X36.729 Y51.329 ; Move to hatch start
G1 X37.401 Y52.001 F600 M3 S1000
M5 ; Laser off
G0 X40.104 Y54.705 ; Move to hatch start
G1 X44.168 Y58.768 F600 M3 S1000
M5 ; Laser off
G0 X38.187 Y54.485 ; Move to hatch start
G1 X39.900 Y56.198 F600 M3 S1000
M5 ; Laser off
G0 X40.573 Y56.870 ; Move to hatch start
G1 X43.383 Y59.680 F600 M3 S1000
M5 ; Laser off
G0 X3.437 Y21.432 ; Move to hatch start
G1 X4.663 Y22.658 F600 M3 S1000
M5 ; Laser off
G0 X38.132 Y56.127 ; Move to hatch start
G1 X42.324 Y60.319 F600 M3 S1000
M5 ; Laser off
G0 X2.264 Y21.956 ; Move to hatch start
G1 X4.224 Y23.915 F600 M3 S1000
M5 ; Laser off
G0 X35.280 Y54.972 ; Move to hatch start
G1 X40.914 Y60.606 F600 M3 S1000
M5 ; Laser off
G0 X1.607 Y22.995 ; Move to hatch start
G1 X3.959 Y25.348 F600 M3 S1000
M5 ; Laser off
G0 X33.153 Y54.541 ; Move to hatch start
G1 X38.894 Y60.283 F600 M3 S1000
M5 ; Laser off
G0 X1.036 Y24.122 ; Move to hatch start
G1 X1.908 Y24.994 F600 M3 S1000
M5 ; Laser off
G0 X31.906 Y54.992 ; Move to hatch start
G1 X33.053 Y56.138 F600 M3 S1000
M5 ; Laser off
G0 X0.592 Y25.375 ; Move to hatch start
G1 X1.839 Y26.622 F600 M3 S1000
M5 ; Laser off
G0 X30.683 Y55.466 ; Move to hatch start
G1 X31.779 Y56.562 F600 M3 S1000
M5 ; Laser off
G0 X0.292 Y26.771 ; Move to hatch start
G1 X2.026 Y28.506 F600 M3 S1000
M5 ; Laser off
G0 X29.416 Y55.896 ; Move to hatch start
G1 X30.512 Y56.992 F600 M3 S1000
M5 ; Laser off
G0 X0.152 Y28.329 ; Move to hatch start
G1 X2.472 Y30.649 F600 M3 S1000
M5 ; Laser off
G0 X28.089 Y56.266 ; Move to hatch start
G1 X29.189 Y57.366 F600 M3 S1000
M5 ; Laser off
G0 X0.175 Y30.049 ; Move to hatch start
G1 X3.153 Y33.027 F600 M3 S1000
M5 ; Laser off
G0 X26.654 Y56.527 ; Move to hatch start
G1 X27.804 Y57.678 F600 M3 S1000
M5 ; Laser off
G0 X0.469 Y32.041 ; Move to hatch start
G1 X3.079 Y34.650 F600 M3 S1000
M5 ; Laser off
G0 X24.796 Y56.367 ; Move to hatch start
G1 X26.263 Y57.834 F600 M3 S1000
M5 ; Laser off
G0 X0.336 Y33.604 ; Move to hatch start
G1 X2.077 Y35.345 F600 M3 S1000
M5 ; Laser off
G0 X22.835 Y56.103 ; Move to hatch start
G1 X24.057 Y57.325 F600 M3 S1000
M5 ; Laser off
G0 X0.232 Y35.197 ; Move to hatch start
G1 X4.265 Y39.231 F600 M3 S1000
M5 ; Laser off
G0 X21.561 Y56.526 ; Move to hatch start
G1 X22.536 Y57.501 F600 M3 S1000
M5 ; Laser off
G0 X1.101 Y37.763 ; Move to hatch start
G1 X5.338 Y42.000 F600 M3 S1000
M5 ; Laser off
G0 X19.803 Y56.466 ; Move to hatch start
G1 X21.143 Y57.806 F600 M3 S1000
M5 ; Laser off
G0 X2.870 Y41.229 ; Move to hatch start
G1 X9.174 Y47.534 F600 M3 S1000
M5 ; Laser off
G0 X17.499 Y55.859 ; Move to hatch start
G1 X19.338 Y57.697 F600 M3 S1000
M5 ; Laser off
G0 X5.211 Y45.267 ; Move to hatch start
G1 X8.227 Y48.283 F600 M3 S1000
M5 ; Laser off
G0 X14.824 Y54.881 ; Move to hatch start
G1 X17.094 Y57.150 F600 M3 S1000
M5 ; Laser off
G0 X6.126 Y47.879 ; Move to hatch start
G1 X10.125 Y51.878 F600 M3 S1000
M5 ; Laser off
G0 X12.703 Y54.456 ; Move to hatch start
G1 X14.571 Y56.324 F600 M3 S1000
M5 ; Laser off
G0 X5.563 Y49.014 ; Move to hatch start
G1 X8.892 Y52.342 F600 M3 S1000
M5 ; Laser off
G0 X11.564 Y55.015 ; Move to hatch start
G1 X12.708 Y56.159 F600 M3 S1000
M5 ; Laser off
G0 X4.625 Y49.773 ; Move to hatch start
G1 X7.972 Y53.119 F600 M3 S1000
M5 ; Laser off
G0 X9.148 Y54.296 ; Move to hatch start
G1 X9.631 Y54.779 F600 M3 S1000
M5 ; Laser off
G0 X10.580 Y55.727 ; Move to hatch start
G1 X11.661 Y56.808 F600 M3 S1000
M5 ; Laser off
G0 X3.636 Y50.480 ; Move to hatch start
G1 X7.202 Y54.047 F600 M3 S1000
M5 ; Laser off
G0 X8.121 Y54.966 ; Move to hatch start
G1 X8.928 Y55.773 F600 M3 S1000
M5 ; Laser off
G0 X9.681 Y56.526 ; Move to hatch start
G1 X10.811 Y57.656 F600 M3 S1000
M5 ; Laser off
G0 X2.727 Y51.269 ; Move to hatch start
G1 X6.635 Y55.176 F600 M3 S1000
M5 ; Laser off
G0 X7.322 Y55.864 ; Move to hatch start
G1 X8.468 Y57.010 F600 M3 S1000
M5 ; Laser off
G0 X8.867 Y57.409 ; Move to hatch start
G1 X10.032 Y58.574 F600 M3 S1000
M5 ; Laser off
G0 X1.983 Y52.221 ; Move to hatch start
G1 X6.348 Y56.587 F600 M3 S1000
M5 ; Laser off
G0 X6.616 Y56.854 ; Move to hatch start
G1 X9.222 Y59.461 F600 M3 S1000
M5 ; Laser off
G0 X1.492 Y53.427 ; Move to hatch start
G1 X8.238 Y60.173 F600 M3 S1000
M5 ; Laser off
G0 X1.374 Y55.007 ; Move to hatch start
G1 X6.934 Y60.567 F600 M3 S1000
M5 ; Laser off
G0 X1.909 Y57.239 ; Move to hatch start
G1 X5.212 Y60.542 F600 M3 S1000
M5 ; Laser off
G0 X45.389 Y55.982 ; Move to hatch start
G1 X40.760 Y60.610 F600 M3 S1000
M5 ; Laser off
G0 X45.521 Y54.152 ; Move to hatch start
G1 X39.253 Y60.421 F600 M3 S1000
M5 ; Laser off
G0 X45.226 Y52.750 ; Move to hatch start
G1 X38.127 Y59.850 F600 M3 S1000
M5 ; Laser off
G0 X44.591 Y51.688 ; Move to hatch start
G1 X40.465 Y55.814 F600 M3 S1000
M5 ; Laser off
G0 X39.975 Y56.304 ; Move to hatch start
G1 X38.595 Y57.684 F600 M3 S1000
M5 ; Laser off
G0 X38.431 Y57.849 ; Move to hatch start
G1 X37.262 Y59.017 F600 M3 S1000
M5 ; Laser off
G0 X43.757 Y50.825 ; Move to hatch start
G1 X40.035 Y54.548 F600 M3 S1000
M5 ; Laser off
G0 X39.220 Y55.362 ; Move to hatch start
G1 X38.230 Y56.352 F600 M3 S1000
M5 ; Laser off
G0 X37.656 Y56.927 ; Move to hatch start
G1 X36.487 Y58.095 F600 M3 S1000
M5 ; Laser off
G0 X42.799 Y50.087 ; Move to hatch start
G1 X39.385 Y53.500 F600 M3 S1000
M5 ; Laser off
G0 X38.317 Y54.568 ; Move to hatch start
G1 X37.645 Y55.240 F600 M3 S1000
M5 ; Laser off
G0 X36.797 Y56.088 ; Move to hatch start
G1 X35.712 Y57.173 F600 M3 S1000
M5 ; Laser off
G0 X41.811 Y49.377 ; Move to hatch start
G1 X38.541 Y52.648 F600 M3 S1000
M5 ; Laser off
G0 X37.118 Y54.071 ; Move to hatch start
G1 X36.767 Y54.421 F600 M3 S1000
M5 ; Laser off
G0 X35.840 Y55.348 ; Move to hatch start
G1 X34.751 Y56.437 F600 M3 S1000
M5 ; Laser off
G0 X41.086 Y48.405 ; Move to hatch start
G1 X37.466 Y52.026 F600 M3 S1000
M5 ; Laser off
G0 X34.810 Y54.681 ; Move to hatch start
G1 X33.451 Y56.040 F600 M3 S1000
M5 ; Laser off
G0 X40.791 Y47.003 ; Move to hatch start
G1 X37.639 Y50.155 F600 M3 S1000
M5 ; Laser off
G0 X33.280 Y54.514 ; Move to hatch start
G1 X30.949 Y56.845 F600 M3 S1000
M5 ; Laser off
G0 X44.832 Y41.265 ; Move to hatch start
G1 X38.531 Y47.566 F600 M3 S1000
M5 ; Laser off
G0 X30.600 Y55.497 ; Move to hatch start
G1 X28.586 Y57.511 F600 M3 S1000
M5 ; Laser off
G0 X45.176 Y39.224 ; Move to hatch start
G1 X39.646 Y44.754 F600 M3 S1000
M5 ; Laser off
G0 X28.150 Y56.250 ; Move to hatch start
G1 X26.571 Y57.828 F600 M3 S1000
M5 ; Laser off
G0 X46.477 Y36.226 ; Move to hatch start
G1 X41.316 Y41.387 F600 M3 S1000
M5 ; Laser off
G0 X26.139 Y56.564 ; Move to hatch start
G1 X25.024 Y57.679 F600 M3 S1000
M5 ; Laser off
G0 X46.981 Y34.025 ; Move to hatch start
G1 X44.029 Y36.977 F600 M3 S1000
M5 ; Laser off
G0 X24.679 Y56.327 ; Move to hatch start
G1 X23.788 Y57.218 F600 M3 S1000
M5 ; Laser off
G0 X46.156 Y33.153 ; Move to hatch start
G1 X44.816 Y34.493 F600 M3 S1000
M5 ; Laser off
G0 X23.446 Y55.863 ; Move to hatch start
G1 X21.537 Y57.772 F600 M3 S1000
M5 ; Laser off
G0 X46.648 Y30.964 ; Move to hatch start
G1 X43.252 Y34.360 F600 M3 S1000
M5 ; Laser off
G0 X21.049 Y56.563 ; Move to hatch start
G1 X19.829 Y57.783 F600 M3 S1000
M5 ; Laser off
G0 X46.770 Y29.144 ; Move to hatch start
G1 X44.169 Y31.746 F600 M3 S1000
M5 ; Laser off
G0 X19.504 Y56.411 ; Move to hatch start
G1 X18.404 Y57.510 F600 M3 S1000
M5 ; Laser off
G0 X46.695 Y27.523 ; Move to hatch start
G1 X44.693 Y29.525 F600 M3 S1000
M5 ; Laser off
G0 X18.153 Y56.064 ; Move to hatch start
G1 X17.074 Y57.144 F600 M3 S1000
M5 ; Laser off
G0 X46.457 Y26.063 ; Move to hatch start
G1 X45.023 Y27.497 F600 M3 S1000
M5 ; Laser off
G0 X16.872 Y55.649 ; Move to hatch start
G1 X15.784 Y56.737 F600 M3 S1000
M5 ; Laser off
G0 X46.081 Y24.742 ; Move to hatch start
G1 X45.056 Y25.767 F600 M3 S1000
M5 ; Laser off
G0 X15.620 Y55.204 ; Move to hatch start
G1 X14.518 Y56.305 F600 M3 S1000
M5 ; Laser off
G0 X45.590 Y23.536 ; Move to hatch start
G1 X44.755 Y24.372 F600 M3 S1000
M5 ; Laser off
G0 X14.419 Y54.707 ; Move to hatch start
G1 X13.158 Y55.968 F600 M3 S1000
M5 ; Laser off
G0 X44.965 Y22.465 ; Move to hatch start
G1 X42.811 Y24.618 F600 M3 S1000
M5 ; Laser off
G0 X13.025 Y54.404 ; Move to hatch start
G1 X6.855 Y60.575 F600 M3 S1000
M5 ; Laser off
G0 X44.231 Y21.502 ; Move to hatch start
G1 X42.401 Y23.332 F600 M3 S1000
M5 ; Laser off
G0 X8.386 Y57.347 ; Move to hatch start
G1 X5.194 Y60.538 F600 M3 S1000
M5 ; Laser off
G0 X42.082 Y21.953 ; Move to hatch start
G1 X41.897 Y22.139 F600 M3 S1000
M5 ; Laser off
G0 X9.993 Y54.042 ; Move to hatch start
G1 X3.958 Y60.077 F600 M3 S1000
M5 ; Laser off
G0 X10.524 Y51.815 ; Move to hatch start
G1 X10.523 Y51.815 F600 M3 S1000
M5 ; Laser off
G0 X6.441 Y55.897 ; Move to hatch start
G1 X3.072 Y59.267 F600 M3 S1000
M5 ; Laser off
G0 X9.778 Y50.864 ; Move to hatch start
G1 X2.389 Y58.252 F600 M3 S1000
M5 ; Laser off
G0 X9.074 Y49.870 ; Move to hatch start
G1 X1.851 Y57.093 F600 M3 S1000
M5 ; Laser off
G0 X8.471 Y48.776 ; Move to hatch start
G1 X1.478 Y55.769 F600 M3 S1000
M5 ; Laser off
G0 X8.781 Y46.769 ; Move to hatch start
G1 X8.010 Y47.540 F600 M3 S1000
M5 ; Laser off
G0 X7.931 Y47.619 ; Move to hatch start
G1 X1.374 Y54.176 F600 M3 S1000
M5 ; Laser off
G0 X8.091 Y45.762 ; Move to hatch start
G1 X6.164 Y47.689 F600 M3 S1000
M5 ; Laser off
G0 X7.378 Y44.777 ; Move to hatch start
G1 X6.012 Y46.144 F600 M3 S1000
M5 ; Laser off
G0 X6.652 Y43.807 ; Move to hatch start
G1 X5.202 Y45.257 F600 M3 S1000
M5 ; Laser off
G0 X5.932 Y42.829 ; Move to hatch start
G1 X4.377 Y44.385 F600 M3 S1000
M5 ; Laser off
G0 X5.659 Y41.405 ; Move to hatch start
G1 X3.574 Y43.490 F600 M3 S1000
M5 ; Laser off
G0 X4.998 Y40.369 ; Move to hatch start
G1 X2.817 Y42.551 F600 M3 S1000
M5 ; Laser off
G0 X4.333 Y39.338 ; Move to hatch start
G1 X2.821 Y40.849 F600 M3 S1000
M5 ; Laser off
G0 X2.430 Y41.240 ; Move to hatch start
G1 X2.110 Y41.561 F600 M3 S1000
M5 ; Laser off
G0 X3.686 Y38.288 ; Move to hatch start
G1 X2.150 Y39.824 F600 M3 S1000
M5 ; Laser off
G0 X3.063 Y37.213 ; Move to hatch start
G1 X1.554 Y38.722 F600 M3 S1000
M5 ; Laser off
G0 X2.468 Y36.112 ; Move to hatch start
G1 X1.015 Y37.564 F600 M3 S1000
M5 ; Laser off
G0 X3.334 Y33.549 ; Move to hatch start
G1 X2.354 Y34.528 F600 M3 S1000
M5 ; Laser off
G0 X1.900 Y34.982 ; Move to hatch start
G1 X0.555 Y36.327 F600 M3 S1000
M5 ; Laser off
G0 X2.914 Y32.271 ; Move to hatch start
G1 X0.187 Y34.998 F600 M3 S1000
M5 ; Laser off
G0 X2.545 Y30.944 ; Move to hatch start
G1 X0.679 Y32.809 F600 M3 S1000
M5 ; Laser off
G0 X2.228 Y29.564 ; Move to hatch start
G1 X0.355 Y31.437 F600 M3 S1000
M5 ; Laser off
G0 X1.967 Y28.127 ; Move to hatch start
G1 X0.168 Y29.926 F600 M3 S1000
M5 ; Laser off
G0 X4.145 Y24.252 ; Move to hatch start
G1 X3.247 Y25.150 F600 M3 S1000
M5 ; Laser off
G0 X1.838 Y26.559 ; Move to hatch start
G1 X0.156 Y28.241 F600 M3 S1000
M5 ; Laser off
G0 X4.779 Y21.921 ; Move to hatch start
G1 X2.287 Y24.413 F600 M3 S1000
M5 ; Laser off
G0 X1.961 Y24.740 ; Move to hatch start
G1 X0.366 Y26.334 F600 M3 S1000
M5 ; Laser off
G0 X3.536 Y21.467 ; Move to hatch start
G1 X1.169 Y23.834 F600 M3 S1000
M5 ; Laser off
G0 X5.508 Y60.598 ; Move to path start
G1 X5.172 Y60.534 F600 M3 S1000
G1 X4.866 Y60.460 F600 M3 S1000
G1 X4.587 Y60.374 F600 M3 S1000
G1 X4.330 Y60.274 F600 M3 S1000
G1 X4.092 Y60.158 F600 M3 S1000
G1 X3.869 Y60.024 F600 M3 S1000
G1 X3.659 Y59.869 F600 M3 S1000
G1 X3.458 Y59.691 F600 M3 S1000
G1 X3.261 Y59.490 F600 M3 S1000
G1 X3.067 Y59.261 F600 M3 S1000
G1 X2.870 Y59.004 F600 M3 S1000
G1 X2.630 Y58.654 F600 M3 S1000
G1 X2.408 Y58.286 F600 M3 S1000
G1 X2.204 Y57.904 F600 M3 S1000
G1 X2.019 Y57.509 F600 M3 S1000
G1 X1.855 Y57.106 F600 M3 S1000
G1 X1.713 Y56.697 F600 M3 S1000
G1 X1.593 Y56.285 F600 M3 S1000
G1 X1.496 Y55.873 F600 M3 S1000
G1 X1.424 Y55.466 F600 M3 S1000
G1 X1.377 Y55.064 F600 M3 S1000
G1 X1.356 Y54.673 F600 M3 S1000
G1 X1.363 Y54.294 F600 M3 S1000
G1 X1.397 Y53.931 F600 M3 S1000
G1 X1.454 Y53.580 F600 M3 S1000
G1 X1.537 Y53.241 F600 M3 S1000
G1 X1.646 Y52.913 F600 M3 S1000
G1 X1.781 Y52.595 F600 M3 S1000
G1 X1.942 Y52.286 F600 M3 S1000
G1 X2.131 Y51.986 F600 M3 S1000
G1 X2.348 Y51.693 F600 M3 S1000
G1 X2.593 Y51.406 F600 M3 S1000
G1 X2.867 Y51.125 F600 M3 S1000
G1 X3.171 Y50.849 F600 M3 S1000
G1 X3.505 Y50.577 F600 M3 S1000
G1 X3.869 Y50.308 F600 M3 S1000
G1 X3.999 Y50.216 F600 M3 S1000
G1 X4.134 Y50.121 F600 M3 S1000
G1 X4.270 Y50.025 F600 M3 S1000
G1 X4.403 Y49.931 F600 M3 S1000
G1 X4.528 Y49.842 F600 M3 S1000
G1 X4.643 Y49.760 F600 M3 S1000
G1 X4.743 Y49.690 F600 M3 S1000
G1 X4.824 Y49.633 F600 M3 S1000
G1 X5.018 Y49.490 F600 M3 S1000
G1 X5.201 Y49.344 F600 M3 S1000
G1 X5.370 Y49.198 F600 M3 S1000
G1 X5.522 Y49.056 F600 M3 S1000
G1 X5.656 Y48.918 F600 M3 S1000
G1 X5.767 Y48.789 F600 M3 S1000
G1 X5.855 Y48.670 F600 M3 S1000
G1 X5.915 Y48.564 F600 M3 S1000
G1 X5.975 Y48.418 F600 M3 S1000
G1 X6.032 Y48.248 F600 M3 S1000
G1 X6.084 Y48.059 F600 M3 S1000
G1 X6.131 Y47.857 F600 M3 S1000
G1 X6.172 Y47.645 F600 M3 S1000
G1 X6.206 Y47.430 F600 M3 S1000
G1 X6.231 Y47.217 F600 M3 S1000
G1 X6.247 Y47.009 F600 M3 S1000
G1 X6.252 Y46.812 F600 M3 S1000
G1 X6.253 Y46.751 F600 M3 S1000
G1 X6.253 Y46.696 F600 M3 S1000
G1 X6.253 Y46.645 F600 M3 S1000
G1 X6.250 Y46.598 F600 M3 S1000
G1 X6.245 Y46.553 F600 M3 S1000
G1 X6.235 Y46.507 F600 M3 S1000
G1 X6.219 Y46.460 F600 M3 S1000
G1 X6.197 Y46.411 F600 M3 S1000
G1 X6.167 Y46.357 F600 M3 S1000
G1 X6.128 Y46.297 F600 M3 S1000
G1 X6.080 Y46.230 F600 M3 S1000
G1 X6.020 Y46.154 F600 M3 S1000
G1 X5.948 Y46.068 F600 M3 S1000
G1 X5.863 Y45.971 F600 M3 S1000
G1 X5.764 Y45.860 F600 M3 S1000
G1 X5.649 Y45.734 F600 M3 S1000
G1 X5.517 Y45.593 F600 M3 S1000
G1 X5.368 Y45.434 F600 M3 S1000
G1 X5.199 Y45.255 F600 M3 S1000
G1 X5.011 Y45.056 F600 M3 S1000
G1 X4.802 Y44.835 F600 M3 S1000
G1 X4.570 Y44.590 F600 M3 S1000
G1 X4.266 Y44.266 F600 M3 S1000
G1 X3.984 Y43.957 F600 M3 S1000
G1 X3.718 Y43.658 F600 M3 S1000
G1 X3.468 Y43.366 F600 M3 S1000
G1 X3.228 Y43.076 F600 M3 S1000
G1 X2.996 Y42.785 F600 M3 S1000
G1 X2.769 Y42.488 F600 M3 S1000
G1 X2.542 Y42.182 F600 M3 S1000
G1 X2.314 Y41.861 F600 M3 S1000
G1 X2.218 Y41.724 F600 M3 S1000
G1 X2.141 Y41.610 F600 M3 S1000
G1 X2.081 Y41.516 F600 M3 S1000
G1 X2.036 Y41.442 F600 M3 S1000
G1 X2.007 Y41.384 F600 M3 S1000
G1 X1.992 Y41.341 F600 M3 S1000
G1 X1.989 Y41.311 F600 M3 S1000
G1 X1.999 Y41.292 F600 M3 S1000
G1 X2.029 Y41.276 F600 M3 S1000
G1 X2.084 Y41.262 F600 M3 S1000
G1 X2.163 Y41.252 F600 M3 S1000
G1 X2.265 Y41.245 F600 M3 S1000
G1 X2.390 Y41.241 F600 M3 S1000
G1 X2.537 Y41.239 F600 M3 S1000
G1 X2.686 Y41.238 F600 M3 S1000
G1 X2.807 Y41.234 F600 M3 S1000
G1 X2.902 Y41.226 F600 M3 S1000
G1 X2.973 Y41.214 F600 M3 S1000
G1 X3.020 Y41.197 F600 M3 S1000
G1 X3.045 Y41.174 F600 M3 S1000
G1 X3.049 Y41.144 F600 M3 S1000
G1 X3.035 Y41.107 F600 M3 S1000
G1 X3.002 Y41.061 F600 M3 S1000
G1 X2.954 Y41.007 F600 M3 S1000
G1 X2.845 Y40.880 F600 M3 S1000
G1 X2.726 Y40.724 F600 M3 S1000
G1 X2.597 Y40.541 F600 M3 S1000
G1 X2.461 Y40.335 F600 M3 S1000
G1 X2.319 Y40.108 F600 M3 S1000
G1 X2.172 Y39.863 F600 M3 S1000
G1 X2.023 Y39.603 F600 M3 S1000
G1 X1.873 Y39.332 F600 M3 S1000
G1 X1.724 Y39.052 F600 M3 S1000
G1 X1.576 Y38.767 F600 M3 S1000
G1 X1.433 Y38.478 F600 M3 S1000
G1 X1.295 Y38.190 F600 M3 S1000
G1 X1.163 Y37.905 F600 M3 S1000
G1 X1.041 Y37.626 F600 M3 S1000
G1 X0.929 Y37.357 F600 M3 S1000
G1 X0.829 Y37.099 F600 M3 S1000
G1 X0.687 Y36.711 F600 M3 S1000
G1 X0.562 Y36.347 F600 M3 S1000
G1 X0.452 Y36.004 F600 M3 S1000
G1 X0.355 Y35.678 F600 M3 S1000
G1 X0.271 Y35.365 F600 M3 S1000
G1 X0.200 Y35.060 F600 M3 S1000
G1 X0.139 Y34.759 F600 M3 S1000
G1 X0.087 Y34.459 F600 M3 S1000
G1 X0.045 Y34.156 F600 M3 S1000
G1 X0.010 Y33.844 F600 M3 S1000
G1 X0.000 Y33.732 F600 M3 S1000
G1 X-0.000 Y33.645 F600 M3 S1000
G1 X0.009 Y33.580 F600 M3 S1000
G1 X0.028 Y33.538 F600 M3 S1000
G1 X0.060 Y33.517 F600 M3 S1000
G1 X0.104 Y33.515 F600 M3 S1000
G1 X0.163 Y33.531 F600 M3 S1000
G1 X0.237 Y33.564 F600 M3 S1000
G1 X0.301 Y33.591 F600 M3 S1000
G1 X0.380 Y33.620 F600 M3 S1000
G1 X0.471 Y33.650 F600 M3 S1000
G1 X0.567 Y33.678 F600 M3 S1000
G1 X0.664 Y33.704 F600 M3 S1000
G1 X0.757 Y33.726 F600 M3 S1000
G1 X0.840 Y33.743 F600 M3 S1000
G1 X0.908 Y33.754 F600 M3 S1000
G1 X0.958 Y33.758 F600 M3 S1000
G1 X0.982 Y33.752 F600 M3 S1000
G1 X0.988 Y33.732 F600 M3 S1000
G1 X0.985 Y33.694 F600 M3 S1000
G1 X0.975 Y33.643 F600 M3 S1000
G1 X0.957 Y33.582 F600 M3 S1000
G1 X0.934 Y33.516 F600 M3 S1000
G1 X0.840 Y33.267 F600 M3 S1000
G1 X0.758 Y33.042 F600 M3 S1000
G1 X0.688 Y32.836 F600 M3 S1000
G1 X0.626 Y32.645 F600 M3 S1000
G1 X0.573 Y32.464 F600 M3 S1000
G1 X0.526 Y32.286 F600 M3 S1000
G1 X0.484 Y32.109 F600 M3 S1000
G1 X0.445 Y31.926 F600 M3 S1000
G1 X0.408 Y31.733 F600 M3 S1000
G1 X0.388 Y31.621 F600 M3 S1000
G1 X0.367 Y31.505 F600 M3 S1000
G1 X0.346 Y31.391 F600 M3 S1000
G1 X0.327 Y31.285 F600 M3 S1000
G1 X0.309 Y31.192 F600 M3 S1000
G1 X0.294 Y31.119 F600 M3 S1000
G1 X0.256 Y30.878 F600 M3 S1000
G1 X0.222 Y30.609 F600 M3 S1000
G1 X0.194 Y30.314 F600 M3 S1000
G1 X0.171 Y29.995 F600 M3 S1000
G1 X0.155 Y29.653 F600 M3 S1000
G1 X0.144 Y29.290 F600 M3 S1000
G1 X0.141 Y28.907 F600 M3 S1000
G1 X0.152 Y28.304 F600 M3 S1000
G1 X0.184 Y27.724 F600 M3 S1000
G1 X0.237 Y27.164 F600 M3 S1000
G1 X0.312 Y26.622 F600 M3 S1000
G1 X0.410 Y26.096 F600 M3 S1000
G1 X0.531 Y25.585 F600 M3 S1000
G1 X0.675 Y25.086 F600 M3 S1000
G1 X0.844 Y24.597 F600 M3 S1000
G1 X1.038 Y24.117 F600 M3 S1000
G1 X1.258 Y23.642 F600 M3 S1000
G1 X1.504 Y23.172 F600 M3 S1000
G1 X1.777 Y22.703 F600 M3 S1000
G1 X2.077 Y22.235 F600 M3 S1000
G1 X2.210 Y22.036 F600 M3 S1000
G1 X2.326 Y21.863 F600 M3 S1000
G1 X2.427 Y21.716 F600 M3 S1000
G1 X2.515 Y21.592 F600 M3 S1000
G1 X2.591 Y21.490 F600 M3 S1000
G1 X2.658 Y21.409 F600 M3 S1000
G1 X2.718 Y21.346 F600 M3 S1000
G1 X2.772 Y21.300 F600 M3 S1000
G1 X2.822 Y21.270 F600 M3 S1000
G1 X2.870 Y21.253 F600 M3 S1000
G1 X2.919 Y21.249 F600 M3 S1000
G1 X2.969 Y21.256 F600 M3 S1000
G1 X3.023 Y21.271 F600 M3 S1000
G1 X3.083 Y21.294 F600 M3 S1000
G1 X3.151 Y21.324 F600 M3 S1000
G1 X3.211 Y21.347 F600 M3 S1000
G1 X3.297 Y21.380 F600 M3 S1000
G1 X3.404 Y21.420 F600 M3 S1000
G1 X3.528 Y21.465 F600 M3 S1000
G1 X3.664 Y21.513 F600 M3 S1000
G1 X3.807 Y21.563 F600 M3 S1000
G1 X3.952 Y21.613 F600 M3 S1000
G1 X4.159 Y21.684 F600 M3 S1000
G1 X4.335 Y21.745 F600 M3 S1000
G1 X4.484 Y21.799 F600 M3 S1000
G1 X4.607 Y21.845 F600 M3 S1000
G1 X4.707 Y21.886 F600 M3 S1000
G1 X4.784 Y21.923 F600 M3 S1000
G1 X4.842 Y21.958 F600 M3 S1000
G1 X4.882 Y21.991 F600 M3 S1000
G1 X4.906 Y22.023 F600 M3 S1000
G1 X4.916 Y22.057 F600 M3 S1000
G1 X4.914 Y22.093 F600 M3 S1000
G1 X4.902 Y22.133 F600 M3 S1000
G1 X4.882 Y22.179 F600 M3 S1000
G1 X4.855 Y22.230 F600 M3 S1000
G1 X4.788 Y22.369 F600 M3 S1000
G1 X4.715 Y22.532 F600 M3 S1000
G1 X4.639 Y22.715 F600 M3 S1000
G1 X4.562 Y22.910 F600 M3 S1000
G1 X4.486 Y23.112 F600 M3 S1000
G1 X4.413 Y23.314 F600 M3 S1000
G1 X4.346 Y23.510 F600 M3 S1000
G1 X4.287 Y23.694 F600 M3 S1000
G1 X4.238 Y23.860 F600 M3 S1000
G1 X4.202 Y24.000 F600 M3 S1000
G1 X4.165 Y24.161 F600 M3 S1000
G1 X4.128 Y24.332 F600 M3 S1000
G1 X4.093 Y24.505 F600 M3 S1000
G1 X4.061 Y24.675 F600 M3 S1000
G1 X4.033 Y24.834 F600 M3 S1000
G1 X4.011 Y24.976 F600 M3 S1000
G1 X3.996 Y25.096 F600 M3 S1000
G1 X3.980 Y25.224 F600 M3 S1000
G1 X3.965 Y25.321 F600 M3 S1000
G1 X3.949 Y25.392 F600 M3 S1000
G1 X3.931 Y25.441 F600 M3 S1000
G1 X3.910 Y25.471 F600 M3 S1000
G1 X3.884 Y25.486 F600 M3 S1000
G1 X3.852 Y25.490 F600 M3 S1000
G1 X3.805 Y25.480 F600 M3 S1000
G1 X3.736 Y25.451 F600 M3 S1000
G1 X3.649 Y25.406 F600 M3 S1000
G1 X3.546 Y25.346 F600 M3 S1000
G1 X3.430 Y25.274 F600 M3 S1000
G1 X3.306 Y25.191 F600 M3 S1000
G1 X3.176 Y25.101 F600 M3 S1000
G1 X3.043 Y25.004 F600 M3 S1000
G1 X2.910 Y24.904 F600 M3 S1000
G1 X2.782 Y24.803 F600 M3 S1000
G1 X2.660 Y24.701 F600 M3 S1000
G1 X2.563 Y24.621 F600 M3 S1000
G1 X2.471 Y24.547 F600 M3 S1000
G1 X2.385 Y24.482 F600 M3 S1000
G1 X2.310 Y24.428 F600 M3 S1000
G1 X2.248 Y24.387 F600 M3 S1000
G1 X2.201 Y24.360 F600 M3 S1000
G1 X2.174 Y24.351 F600 M3 S1000
G1 X2.135 Y24.365 F600 M3 S1000
G1 X2.095 Y24.407 F600 M3 S1000
G1 X2.055 Y24.475 F600 M3 S1000
G1 X2.015 Y24.564 F600 M3 S1000
G1 X1.978 Y24.674 F600 M3 S1000
G1 X1.944 Y24.800 F600 M3 S1000
G1 X1.915 Y24.942 F600 M3 S1000
G1 X1.905 Y25.012 F600 M3 S1000
G1 X1.894 Y25.110 F600 M3 S1000
G1 X1.884 Y25.232 F600 M3 S1000
G1 X1.873 Y25.373 F600 M3 S1000
G1 X1.863 Y25.529 F600 M3 S1000
G1 X1.854 Y25.694 F600 M3 S1000
G1 X1.847 Y25.865 F600 M3 S1000
G1 X1.841 Y26.037 F600 M3 S1000
G1 X1.836 Y26.332 F600 M3 S1000
G1 X1.839 Y26.626 F600 M3 S1000
G1 X1.849 Y26.922 F600 M3 S1000
G1 X1.867 Y27.222 F600 M3 S1000
G1 X1.894 Y27.530 F600 M3 S1000
G1 X1.930 Y27.848 F600 M3 S1000
G1 X1.974 Y28.179 F600 M3 S1000
G1 X2.029 Y28.526 F600 M3 S1000
G1 X2.093 Y28.891 F600 M3 S1000
G1 X2.168 Y29.278 F600 M3 S1000
G1 X2.253 Y29.688 F600 M3 S1000
G1 X2.350 Y30.126 F600 M3 S1000
G1 X2.459 Y30.594 F600 M3 S1000
G1 X2.529 Y30.881 F600 M3 S1000
G1 X2.604 Y31.177 F600 M3 S1000
G1 X2.686 Y31.478 F600 M3 S1000
G1 X2.771 Y31.783 F600 M3 S1000
G1 X2.859 Y32.086 F600 M3 S1000
G1 X2.949 Y32.387 F600 M3 S1000
G1 X3.041 Y32.681 F600 M3 S1000
G1 X3.132 Y32.965 F600 M3 S1000
G1 X3.223 Y33.236 F600 M3 S1000
G1 X3.312 Y33.491 F600 M3 S1000
G1 X3.399 Y33.727 F600 M3 S1000
G1 X3.482 Y33.941 F600 M3 S1000
G1 X3.560 Y34.130 F600 M3 S1000
G1 X3.633 Y34.291 F600 M3 S1000
G1 X3.687 Y34.409 F600 M3 S1000
G1 X3.728 Y34.505 F600 M3 S1000
G1 X3.755 Y34.581 F600 M3 S1000
G1 X3.770 Y34.638 F600 M3 S1000
G1 X3.771 Y34.678 F600 M3 S1000
G1 X3.760 Y34.703 F600 M3 S1000
G1 X3.734 Y34.711 F600 M3 S1000
G1 X3.681 Y34.713 F600 M3 S1000
G1 X3.603 Y34.710 F600 M3 S1000
G1 X3.502 Y34.703 F600 M3 S1000
G1 X3.380 Y34.690 F600 M3 S1000
G1 X3.239 Y34.672 F600 M3 S1000
G1 X3.082 Y34.650 F600 M3 S1000
G1 X2.910 Y34.624 F600 M3 S1000
G1 X2.726 Y34.594 F600 M3 S1000
G1 X2.532 Y34.561 F600 M3 S1000
G1 X2.329 Y34.524 F600 M3 S1000
G1 X2.121 Y34.484 F600 M3 S1000
G1 X2.000 Y34.462 F600 M3 S1000
G1 X1.898 Y34.448 F600 M3 S1000
G1 X1.820 Y34.443 F600 M3 S1000
G1 X1.765 Y34.446 F600 M3 S1000
G1 X1.736 Y34.458 F600 M3 S1000
G1 X1.725 Y34.475 F600 M3 S1000
G1 X1.721 Y34.502 F600 M3 S1000
G1 X1.724 Y34.539 F600 M3 S1000
G1 X1.736 Y34.588 F600 M3 S1000
G1 X1.756 Y34.650 F600 M3 S1000
G1 X1.786 Y34.726 F600 M3 S1000
G1 X1.825 Y34.819 F600 M3 S1000
G1 X1.876 Y34.930 F600 M3 S1000
G1 X1.937 Y35.061 F600 M3 S1000
G1 X2.011 Y35.212 F600 M3 S1000
G1 X2.097 Y35.386 F600 M3 S1000
G1 X2.196 Y35.584 F600 M3 S1000
G1 X2.310 Y35.807 F600 M3 S1000
G1 X2.569 Y36.306 F600 M3 S1000
G1 X2.836 Y36.804 F600 M3 S1000
G1 X3.114 Y37.304 F600 M3 S1000
G1 X3.403 Y37.809 F600 M3 S1000
G1 X3.706 Y38.322 F600 M3 S1000
G1 X4.025 Y38.845 F600 M3 S1000
G1 X4.361 Y39.383 F600 M3 S1000
G1 X4.716 Y39.937 F600 M3 S1000
G1 X5.091 Y40.512 F600 M3 S1000
G1 X5.220 Y40.708 F600 M3 S1000
G1 X5.333 Y40.881 F600 M3 S1000
G1 X5.429 Y41.031 F600 M3 S1000
G1 X5.511 Y41.160 F600 M3 S1000
G1 X5.580 Y41.270 F600 M3 S1000
G1 X5.635 Y41.363 F600 M3 S1000
G1 X5.679 Y41.440 F600 M3 S1000
G1 X5.713 Y41.504 F600 M3 S1000
G1 X5.736 Y41.556 F600 M3 S1000
G1 X5.751 Y41.597 F600 M3 S1000
G1 X5.758 Y41.630 F600 M3 S1000
G1 X5.758 Y41.656 F600 M3 S1000
G1 X5.753 Y41.677 F600 M3 S1000
G1 X5.737 Y41.699 F600 M3 S1000
G1 X5.704 Y41.725 F600 M3 S1000
G1 X5.656 Y41.754 F600 M3 S1000
G1 X5.598 Y41.783 F600 M3 S1000
G1 X5.534 Y41.809 F600 M3 S1000
G1 X5.444 Y41.848 F600 M3 S1000
G1 X5.381 Y41.890 F600 M3 S1000
G1 X5.345 Y41.936 F600 M3 S1000
G1 X5.335 Y41.988 F600 M3 S1000
G1 X5.350 Y42.049 F600 M3 S1000
G1 X5.390 Y42.120 F600 M3 S1000
G1 X5.455 Y42.203 F600 M3 S1000
G1 X5.489 Y42.242 F600 M3 S1000
G1 X5.537 Y42.301 F600 M3 S1000
G1 X5.596 Y42.377 F600 M3 S1000
G1 X5.665 Y42.467 F600 M3 S1000
G1 X5.741 Y42.568 F600 M3 S1000
G1 X5.822 Y42.677 F600 M3 S1000
G1 X5.905 Y42.792 F600 M3 S1000
G1 X5.990 Y42.908 F600 M3 S1000
G1 X6.066 Y43.015 F600 M3 S1000
G1 X6.162 Y43.145 F600 M3 S1000
G1 X6.272 Y43.295 F600 M3 S1000
G1 X6.395 Y43.462 F600 M3 S1000
G1 X6.529 Y43.642 F600 M3 S1000
G1 X6.670 Y43.831 F600 M3 S1000
G1 X6.816 Y44.027 F600 M3 S1000
G1 X6.964 Y44.224 F600 M3 S1000
G1 X7.111 Y44.421 F600 M3 S1000
G1 X7.256 Y44.612 F600 M3 S1000
G1 X7.421 Y44.834 F600 M3 S1000
G1 X7.586 Y45.059 F600 M3 S1000
G1 X7.750 Y45.285 F600 M3 S1000
G1 X7.912 Y45.509 F600 M3 S1000
G1 X8.069 Y45.730 F600 M3 S1000
G1 X8.221 Y45.946 F600 M3 S1000
G1 X8.367 Y46.155 F600 M3 S1000
G1 X8.504 Y46.354 F600 M3 S1000
G1 X8.631 Y46.542 F600 M3 S1000
G1 X8.748 Y46.717 F600 M3 S1000
G1 X8.852 Y46.877 F600 M3 S1000
G1 X8.942 Y47.020 F600 M3 S1000
G1 X9.018 Y47.143 F600 M3 S1000
G1 X9.077 Y47.245 F600 M3 S1000
G1 X9.117 Y47.324 F600 M3 S1000
G1 X9.154 Y47.416 F600 M3 S1000
G1 X9.173 Y47.493 F600 M3 S1000
G1 X9.175 Y47.554 F600 M3 S1000
G1 X9.159 Y47.596 F600 M3 S1000
G1 X9.127 Y47.620 F600 M3 S1000
G1 X9.078 Y47.622 F600 M3 S1000
G1 X9.045 Y47.619 F600 M3 S1000
G1 X8.989 Y47.613 F600 M3 S1000
G1 X8.914 Y47.606 F600 M3 S1000
G1 X8.824 Y47.596 F600 M3 S1000
G1 X8.723 Y47.586 F600 M3 S1000
G1 X8.613 Y47.574 F600 M3 S1000
G1 X8.500 Y47.561 F600 M3 S1000
G1 X8.339 Y47.545 F600 M3 S1000
G1 X8.209 Y47.535 F600 M3 S1000
G1 X8.106 Y47.531 F600 M3 S1000
G1 X8.029 Y47.535 F600 M3 S1000
G1 X7.975 Y47.548 F600 M3 S1000
G1 X7.943 Y47.571 F600 M3 S1000
G1 X7.929 Y47.603 F600 M3 S1000
G1 X7.933 Y47.648 F600 M3 S1000
G1 X7.952 Y47.705 F600 M3 S1000
G1 X7.983 Y47.775 F600 M3 S1000
G1 X8.143 Y48.110 F600 M3 S1000
G1 X8.292 Y48.417 F600 M3 S1000
G1 X8.432 Y48.700 F600 M3 S1000
G1 X8.564 Y48.960 F600 M3 S1000
G1 X8.691 Y49.201 F600 M3 S1000
G1 X8.813 Y49.425 F600 M3 S1000
G1 X8.933 Y49.635 F600 M3 S1000
G1 X9.051 Y49.834 F600 M3 S1000
G1 X9.170 Y50.024 F600 M3 S1000
G1 X9.291 Y50.207 F600 M3 S1000
G1 X9.417 Y50.387 F600 M3 S1000
G1 X9.547 Y50.566 F600 M3 S1000
G1 X9.685 Y50.746 F600 M3 S1000
G1 X9.831 Y50.931 F600 M3 S1000
G1 X9.987 Y51.123 F600 M3 S1000
G1 X10.156 Y51.324 F600 M3 S1000
G1 X10.244 Y51.429 F600 M3 S1000
G1 X10.325 Y51.527 F600 M3 S1000
G1 X10.395 Y51.616 F600 M3 S1000
G1 X10.452 Y51.693 F600 M3 S1000
G1 X10.494 Y51.753 F600 M3 S1000
G1 X10.519 Y51.795 F600 M3 S1000
G1 X10.524 Y51.815 F600 M3 S1000
G1 X10.506 Y51.826 F600 M3 S1000
G1 X10.465 Y51.837 F600 M3 S1000
G1 X10.404 Y51.849 F600 M3 S1000
G1 X10.327 Y51.859 F600 M3 S1000
G1 X10.239 Y51.868 F600 M3 S1000
G1 X10.143 Y51.876 F600 M3 S1000
G1 X9.934 Y51.899 F600 M3 S1000
G1 X9.727 Y51.944 F600 M3 S1000
G1 X9.518 Y52.011 F600 M3 S1000
G1 X9.307 Y52.101 F600 M3 S1000
G1 X9.092 Y52.215 F600 M3 S1000
G1 X8.873 Y52.354 F600 M3 S1000
G1 X8.647 Y52.518 F600 M3 S1000
G1 X8.413 Y52.709 F600 M3 S1000
G1 X8.170 Y52.927 F600 M3 S1000
G1 X7.917 Y53.173 F600 M3 S1000
G1 X7.674 Y53.431 F600 M3 S1000
G1 X7.449 Y53.702 F600 M3 S1000
G1 X7.243 Y53.983 F600 M3 S1000
G1 X7.059 Y54.271 F600 M3 S1000
G1 X6.896 Y54.564 F600 M3 S1000
G1 X6.757 Y54.859 F600 M3 S1000
G1 X6.642 Y55.153 F600 M3 S1000
G1 X6.582 Y55.342 F600 M3 S1000
G1 X6.527 Y55.536 F600 M3 S1000
G1 X6.478 Y55.729 F600 M3 S1000
G1 X6.436 Y55.919 F600 M3 S1000
G1 X6.402 Y56.102 F600 M3 S1000
G1 X6.375 Y56.274 F600 M3 S1000
G1 X6.357 Y56.432 F600 M3 S1000
G1 X6.348 Y56.572 F600 M3 S1000
G1 X6.348 Y56.690 F600 M3 S1000
G1 X6.359 Y56.784 F600 M3 S1000
G1 X6.379 Y56.848 F600 M3 S1000
G1 X6.410 Y56.897 F600 M3 S1000
G1 X6.442 Y56.928 F600 M3 S1000
G1 X6.476 Y56.941 F600 M3 S1000
G1 X6.516 Y56.933 F600 M3 S1000
G1 X6.562 Y56.905 F600 M3 S1000
G1 X6.617 Y56.853 F600 M3 S1000
G1 X6.681 Y56.778 F600 M3 S1000
G1 X6.756 Y56.677 F600 M3 S1000
G1 X6.845 Y56.549 F600 M3 S1000
G1 X6.949 Y56.393 F600 M3 S1000
G1 X7.183 Y56.052 F600 M3 S1000
G1 X7.414 Y55.742 F600 M3 S1000
G1 X7.643 Y55.460 F600 M3 S1000
G1 X7.872 Y55.208 F600 M3 S1000
G1 X8.102 Y54.983 F600 M3 S1000
G1 X8.334 Y54.784 F600 M3 S1000
G1 X8.569 Y54.610 F600 M3 S1000
G1 X8.807 Y54.461 F600 M3 S1000
G1 X9.051 Y54.336 F600 M3 S1000
G1 X9.301 Y54.233 F600 M3 S1000
G1 X9.492 Y54.166 F600 M3 S1000
G1 X9.666 Y54.113 F600 M3 S1000
G1 X9.821 Y54.073 F600 M3 S1000
G1 X9.956 Y54.046 F600 M3 S1000
G1 X10.070 Y54.033 F600 M3 S1000
G1 X10.161 Y54.034 F600 M3 S1000
G1 X10.228 Y54.048 F600 M3 S1000
G1 X10.269 Y54.076 F600 M3 S1000
G1 X10.283 Y54.119 F600 M3 S1000
G1 X10.272 Y54.142 F600 M3 S1000
G1 X10.240 Y54.182 F600 M3 S1000
G1 X10.191 Y54.238 F600 M3 S1000
G1 X10.126 Y54.305 F600 M3 S1000
G1 X10.049 Y54.382 F600 M3 S1000
G1 X9.961 Y54.465 F600 M3 S1000
G1 X9.867 Y54.553 F600 M3 S1000
G1 X9.707 Y54.703 F600 M3 S1000
G1 X9.570 Y54.839 F600 M3 S1000
G1 X9.451 Y54.967 F600 M3 S1000
G1 X9.346 Y55.092 F600 M3 S1000
G1 X9.251 Y55.220 F600 M3 S1000
G1 X9.161 Y55.355 F600 M3 S1000
G1 X9.071 Y55.505 F600 M3 S1000
G1 X8.977 Y55.674 F600 M3 S1000
G1 X8.886 Y55.858 F600 M3 S1000
G1 X8.795 Y56.065 F600 M3 S1000
G1 X8.705 Y56.289 F600 M3 S1000
G1 X8.620 Y56.524 F600 M3 S1000
G1 X8.541 Y56.763 F600 M3 S1000
G1 X8.471 Y57.000 F600 M3 S1000
G1 X8.412 Y57.228 F600 M3 S1000
G1 X8.365 Y57.441 F600 M3 S1000
G1 X8.333 Y57.632 F600 M3 S1000
G1 X8.323 Y57.717 F600 M3 S1000
G1 X8.319 Y57.780 F600 M3 S1000
G1 X8.322 Y57.826 F600 M3 S1000
G1 X8.333 Y57.857 F600 M3 S1000
G1 X8.351 Y57.878 F600 M3 S1000
G1 X8.377 Y57.891 F600 M3 S1000
G1 X8.416 Y57.896 F600 M3 S1000
G1 X8.460 Y57.878 F600 M3 S1000
G1 X8.510 Y57.837 F600 M3 S1000
G1 X8.565 Y57.773 F600 M3 S1000
G1 X8.842 Y57.439 F600 M3 S1000
G1 X9.111 Y57.128 F600 M3 S1000
G1 X9.375 Y56.839 F600 M3 S1000
G1 X9.637 Y56.568 F600 M3 S1000
G1 X9.901 Y56.312 F600 M3 S1000
G1 X10.170 Y56.068 F600 M3 S1000
G1 X10.446 Y55.834 F600 M3 S1000
G1 X10.733 Y55.606 F600 M3 S1000
G1 X11.034 Y55.381 F600 M3 S1000
G1 X11.352 Y55.157 F600 M3 S1000
G1 X11.602 Y54.990 F600 M3 S1000
G1 X11.833 Y54.844 F600 M3 S1000
G1 X12.050 Y54.721 F600 M3 S1000
G1 X12.253 Y54.618 F600 M3 S1000
G1 X12.447 Y54.536 F600 M3 S1000
G1 X12.633 Y54.473 F600 M3 S1000
G1 X12.813 Y54.430 F600 M3 S1000
G1 X12.992 Y54.405 F600 M3 S1000
G1 X13.171 Y54.399 F600 M3 S1000
G1 X13.352 Y54.409 F600 M3 S1000
G1 X13.539 Y54.437 F600 M3 S1000
G1 X13.735 Y54.480 F600 M3 S1000
G1 X13.941 Y54.539 F600 M3 S1000
G1 X14.065 Y54.580 F600 M3 S1000
G1 X14.197 Y54.625 F600 M3 S1000
G1 X14.330 Y54.673 F600 M3 S1000
G1 X14.456 Y54.721 F600 M3 S1000
G1 X14.568 Y54.766 F600 M3 S1000
G1 X14.659 Y54.807 F600 M3 S1000
G1 X14.832 Y54.884 F600 M3 S1000
G1 X15.013 Y54.962 F600 M3 S1000
G1 X15.205 Y55.041 F600 M3 S1000
G1 X15.408 Y55.122 F600 M3 S1000
G1 X15.625 Y55.206 F600 M3 S1000
G1 X15.859 Y55.293 F600 M3 S1000
G1 X16.110 Y55.384 F600 M3 S1000
G1 X16.381 Y55.480 F600 M3 S1000
G1 X16.675 Y55.582 F600 M3 S1000
G1 X16.992 Y55.690 F600 M3 S1000
G1 X17.336 Y55.806 F600 M3 S1000
G1 X17.748 Y55.939 F600 M3 S1000
G1 X18.133 Y56.059 F600 M3 S1000
G1 X18.492 Y56.164 F600 M3 S1000
G1 X18.828 Y56.255 F600 M3 S1000
G1 X19.145 Y56.334 F600 M3 S1000
G1 X19.444 Y56.400 F600 M3 S1000
G1 X19.728 Y56.454 F600 M3 S1000
G1 X20.000 Y56.496 F600 M3 S1000
G1 X20.262 Y56.528 F600 M3 S1000
G1 X20.517 Y56.550 F600 M3 S1000
G1 X20.767 Y56.561 F600 M3 S1000
G1 X21.016 Y56.563 F600 M3 S1000
G1 X21.223 Y56.558 F600 M3 S1000
G1 X21.417 Y56.545 F600 M3 S1000
G1 X21.602 Y56.521 F600 M3 S1000
G1 X21.783 Y56.487 F600 M3 S1000
G1 X21.967 Y56.441 F600 M3 S1000
G1 X22.158 Y56.381 F600 M3 S1000
G1 X22.361 Y56.306 F600 M3 S1000
G1 X22.582 Y56.216 F600 M3 S1000
G1 X22.825 Y56.108 F600 M3 S1000
G1 X22.942 Y56.055 F600 M3 S1000
G1 X23.055 Y56.006 F600 M3 S1000
G1 X23.162 Y55.962 F600 M3 S1000
G1 X23.259 Y55.925 F600 M3 S1000
G1 X23.341 Y55.895 F600 M3 S1000
G1 X23.405 Y55.874 F600 M3 S1000
G1 X23.447 Y55.863 F600 M3 S1000
G1 X23.499 Y55.861 F600 M3 S1000
G1 X23.562 Y55.871 F600 M3 S1000
G1 X23.640 Y55.893 F600 M3 S1000
G1 X23.733 Y55.927 F600 M3 S1000
G1 X23.843 Y55.975 F600 M3 S1000
G1 X23.973 Y56.038 F600 M3 S1000
G1 X24.226 Y56.153 F600 M3 S1000
G1 X24.495 Y56.262 F600 M3 S1000
G1 X24.771 Y56.359 F600 M3 S1000
G1 X25.046 Y56.444 F600 M3 S1000
G1 X25.309 Y56.511 F600 M3 S1000
G1 X25.501 Y56.544 F600 M3 S1000
G1 X25.721 Y56.563 F600 M3 S1000
G1 X25.964 Y56.569 F600 M3 S1000
G1 X26.229 Y56.562 F600 M3 S1000
G1 X26.511 Y56.543 F600 M3 S1000
G1 X26.809 Y56.511 F600 M3 S1000
G1 X27.119 Y56.467 F600 M3 S1000
G1 X27.438 Y56.411 F600 M3 S1000
G1 X27.763 Y56.344 F600 M3 S1000
G1 X28.091 Y56.266 F600 M3 S1000
G1 X28.352 Y56.198 F600 M3 S1000
G1 X28.590 Y56.134 F600 M3 S1000
G1 X28.810 Y56.074 F600 M3 S1000
G1 X29.016 Y56.015 F600 M3 S1000
G1 X29.213 Y55.957 F600 M3 S1000
G1 X29.406 Y55.899 F600 M3 S1000
G1 X29.600 Y55.839 F600 M3 S1000
G1 X29.800 Y55.775 F600 M3 S1000
G1 X29.926 Y55.734 F600 M3 S1000
G1 X30.046 Y55.693 F600 M3 S1000
G1 X30.164 Y55.653 F600 M3 S1000
G1 X30.283 Y55.612 F600 M3 S1000
G1 X30.405 Y55.568 F600 M3 S1000
G1 X30.533 Y55.522 F600 M3 S1000
G1 X30.670 Y55.471 F600 M3 S1000
G1 X30.819 Y55.415 F600 M3 S1000
G1 X30.982 Y55.352 F600 M3 S1000
G1 X31.163 Y55.283 F600 M3 S1000
G1 X31.365 Y55.204 F600 M3 S1000
G1 X31.590 Y55.116 F600 M3 S1000
G1 X31.841 Y55.018 F600 M3 S1000
G1 X32.122 Y54.907 F600 M3 S1000
G1 X32.302 Y54.837 F600 M3 S1000
G1 X32.459 Y54.776 F600 M3 S1000
G1 X32.594 Y54.724 F600 M3 S1000
G1 X32.711 Y54.680 F600 M3 S1000
G1 X32.814 Y54.643 F600 M3 S1000
G1 X32.906 Y54.612 F600 M3 S1000
G1 X32.990 Y54.585 F600 M3 S1000
G1 X33.069 Y54.563 F600 M3 S1000
G1 X33.148 Y54.542 F600 M3 S1000
G1 X33.229 Y54.524 F600 M3 S1000
G1 X33.315 Y54.507 F600 M3 S1000
G1 X33.411 Y54.489 F600 M3 S1000
G1 X33.519 Y54.469 F600 M3 S1000
G1 X33.744 Y54.436 F600 M3 S1000
G1 X33.949 Y54.425 F600 M3 S1000
G1 X34.142 Y54.438 F600 M3 S1000
G1 X34.327 Y54.474 F600 M3 S1000
G1 X34.512 Y54.535 F600 M3 S1000
G1 X34.702 Y54.623 F600 M3 S1000
G1 X34.799 Y54.675 F600 M3 S1000
G1 X34.918 Y54.744 F600 M3 S1000
G1 X35.054 Y54.827 F600 M3 S1000
G1 X35.203 Y54.922 F600 M3 S1000
G1 X35.362 Y55.025 F600 M3 S1000
G1 X35.527 Y55.135 F600 M3 S1000
G1 X35.695 Y55.248 F600 M3 S1000
G1 X35.861 Y55.363 F600 M3 S1000
G1 X36.023 Y55.477 F600 M3 S1000
G1 X36.176 Y55.587 F600 M3 S1000
G1 X36.316 Y55.692 F600 M3 S1000
G1 X36.441 Y55.787 F600 M3 S1000
G1 X36.546 Y55.871 F600 M3 S1000
G1 X36.702 Y56.003 F600 M3 S1000
G1 X36.866 Y56.150 F600 M3 S1000
G1 X37.036 Y56.307 F600 M3 S1000
G1 X37.208 Y56.471 F600 M3 S1000
G1 X37.378 Y56.639 F600 M3 S1000
G1 X37.542 Y56.807 F600 M3 S1000
G1 X37.697 Y56.970 F600 M3 S1000
G1 X37.839 Y57.126 F600 M3 S1000
G1 X37.965 Y57.271 F600 M3 S1000
G1 X38.071 Y57.400 F600 M3 S1000
G1 X38.176 Y57.535 F600 M3 S1000
G1 X38.264 Y57.646 F600 M3 S1000
G1 X38.336 Y57.737 F600 M3 S1000
G1 X38.395 Y57.808 F600 M3 S1000
G1 X38.442 Y57.862 F600 M3 S1000
G1 X38.479 Y57.900 F600 M3 S1000
G1 X38.507 Y57.926 F600 M3 S1000
G1 X38.530 Y57.940 F600 M3 S1000
G1 X38.548 Y57.945 F600 M3 S1000
G1 X38.564 Y57.942 F600 M3 S1000
G1 X38.579 Y57.935 F600 M3 S1000
G1 X38.596 Y57.917 F600 M3 S1000
G1 X38.607 Y57.890 F600 M3 S1000
G1 X38.612 Y57.850 F600 M3 S1000
G1 X38.610 Y57.796 F600 M3 S1000
G1 X38.602 Y57.725 F600 M3 S1000
G1 X38.587 Y57.636 F600 M3 S1000
G1 X38.564 Y57.526 F600 M3 S1000
G1 X38.533 Y57.393 F600 M3 S1000
G1 X38.494 Y57.235 F600 M3 S1000
G1 X38.448 Y57.050 F600 M3 S1000
G1 X38.399 Y56.863 F600 M3 S1000
G1 X38.352 Y56.700 F600 M3 S1000
G1 X38.306 Y56.553 F600 M3 S1000
G1 X38.255 Y56.413 F600 M3 S1000
G1 X38.199 Y56.274 F600 M3 S1000
G1 X38.133 Y56.128 F600 M3 S1000
G1 X38.055 Y55.967 F600 M3 S1000
G1 X37.961 Y55.784 F600 M3 S1000
G1 X37.861 Y55.593 F600 M3 S1000
G1 X37.767 Y55.426 F600 M3 S1000
G1 X37.673 Y55.279 F600 M3 S1000
G1 X37.578 Y55.147 F600 M3 S1000
G1 X37.476 Y55.025 F600 M3 S1000
G1 X37.366 Y54.910 F600 M3 S1000
G1 X37.242 Y54.797 F600 M3 S1000
G1 X37.101 Y54.680 F600 M3 S1000
G1 X36.941 Y54.557 F600 M3 S1000
G1 X36.857 Y54.493 F600 M3 S1000
G1 X36.775 Y54.428 F600 M3 S1000
G1 X36.699 Y54.366 F600 M3 S1000
G1 X36.633 Y54.311 F600 M3 S1000
G1 X36.581 Y54.264 F600 M3 S1000
G1 X36.546 Y54.228 F600 M3 S1000
G1 X36.506 Y54.183 F600 M3 S1000
G1 X36.486 Y54.151 F600 M3 S1000
G1 X36.485 Y54.126 F600 M3 S1000
G1 X36.504 Y54.102 F600 M3 S1000
G1 X36.542 Y54.071 F600 M3 S1000
G1 X36.598 Y54.046 F600 M3 S1000
G1 X36.679 Y54.032 F600 M3 S1000
G1 X36.780 Y54.029 F600 M3 S1000
G1 X36.898 Y54.037 F600 M3 S1000
G1 X37.030 Y54.054 F600 M3 S1000
G1 X37.172 Y54.081 F600 M3 S1000
G1 X37.320 Y54.115 F600 M3 S1000
G1 X37.471 Y54.158 F600 M3 S1000
G1 X37.621 Y54.207 F600 M3 S1000
G1 X37.767 Y54.263 F600 M3 S1000
G1 X37.904 Y54.325 F600 M3 S1000
G1 X38.108 Y54.434 F600 M3 S1000
G1 X38.318 Y54.569 F600 M3 S1000
G1 X38.533 Y54.727 F600 M3 S1000
G1 X38.751 Y54.908 F600 M3 S1000
G1 X38.969 Y55.108 F600 M3 S1000
G1 X39.186 Y55.325 F600 M3 S1000
G1 X39.398 Y55.558 F600 M3 S1000
G1 X39.605 Y55.804 F600 M3 S1000
G1 X39.804 Y56.062 F600 M3 S1000
G1 X39.993 Y56.329 F600 M3 S1000
G1 X40.169 Y56.603 F600 M3 S1000
G1 X40.236 Y56.706 F600 M3 S1000
G1 X40.291 Y56.788 F600 M3 S1000
G1 X40.339 Y56.849 F600 M3 S1000
G1 X40.381 Y56.892 F600 M3 S1000
G1 X40.419 Y56.919 F600 M3 S1000
G1 X40.455 Y56.931 F600 M3 S1000
G1 X40.492 Y56.930 F600 M3 S1000
G1 X40.533 Y56.918 F600 M3 S1000
G1 X40.566 Y56.888 F600 M3 S1000
G1 X40.588 Y56.830 F600 M3 S1000
G1 X40.599 Y56.747 F600 M3 S1000
G1 X40.600 Y56.642 F600 M3 S1000
G1 X40.593 Y56.517 F600 M3 S1000
G1 X40.576 Y56.375 F600 M3 S1000
G1 X40.551 Y56.219 F600 M3 S1000
G1 X40.519 Y56.050 F600 M3 S1000
G1 X40.479 Y55.872 F600 M3 S1000
G1 X40.434 Y55.688 F600 M3 S1000
G1 X40.382 Y55.500 F600 M3 S1000
G1 X40.325 Y55.310 F600 M3 S1000
G1 X40.263 Y55.122 F600 M3 S1000
G1 X40.197 Y54.938 F600 M3 S1000
G1 X40.128 Y54.760 F600 M3 S1000
G1 X40.056 Y54.591 F600 M3 S1000
G1 X39.981 Y54.434 F600 M3 S1000
G1 X39.810 Y54.120 F600 M3 S1000
G1 X39.619 Y53.818 F600 M3 S1000
G1 X39.411 Y53.531 F600 M3 S1000
G1 X39.187 Y53.260 F600 M3 S1000
G1 X38.949 Y53.007 F600 M3 S1000
G1 X38.699 Y52.775 F600 M3 S1000
G1 X38.439 Y52.566 F600 M3 S1000
G1 X38.170 Y52.381 F600 M3 S1000
G1 X37.896 Y52.222 F600 M3 S1000
G1 X37.708 Y52.128 F600 M3 S1000
G1 X37.537 Y52.052 F600 M3 S1000
G1 X37.376 Y51.992 F600 M3 S1000
G1 X37.221 Y51.947 F600 M3 S1000
G1 X37.065 Y51.915 F600 M3 S1000
G1 X36.903 Y51.895 F600 M3 S1000
G1 X36.730 Y51.885 F600 M3 S1000
G1 X36.628 Y51.881 F600 M3 S1000
G1 X36.534 Y51.877 F600 M3 S1000
G1 X36.452 Y51.870 F600 M3 S1000
G1 X36.386 Y51.864 F600 M3 S1000
G1 X36.340 Y51.856 F600 M3 S1000
G1 X36.318 Y51.850 F600 M3 S1000
G1 X36.322 Y51.832 F600 M3 S1000
G1 X36.344 Y51.795 F600 M3 S1000
G1 X36.384 Y51.741 F600 M3 S1000
G1 X36.438 Y51.671 F600 M3 S1000
G1 X36.506 Y51.587 F600 M3 S1000
G1 X36.586 Y51.493 F600 M3 S1000
G1 X36.674 Y51.390 F600 M3 S1000
G1 X36.771 Y51.281 F600 M3 S1000
G1 X36.874 Y51.168 F600 M3 S1000
G1 X36.980 Y51.052 F600 M3 S1000
G1 X37.110 Y50.903 F600 M3 S1000
G1 X37.250 Y50.725 F600 M3 S1000
G1 X37.397 Y50.521 F600 M3 S1000
G1 X37.552 Y50.292 F600 M3 S1000
G1 X37.712 Y50.041 F600 M3 S1000
G1 X37.876 Y49.770 F600 M3 S1000
G1 X38.042 Y49.482 F600 M3 S1000
G1 X38.210 Y49.179 F600 M3 S1000
G1 X38.377 Y48.863 F600 M3 S1000
G1 X38.543 Y48.537 F600 M3 S1000
G1 X38.706 Y48.203 F600 M3 S1000
G1 X38.864 Y47.863 F600 M3 S1000
G1 X38.904 Y47.769 F600 M3 S1000
G1 X38.927 Y47.695 F600 M3 S1000
G1 X38.931 Y47.640 F600 M3 S1000
G1 X38.915 Y47.600 F600 M3 S1000
G1 X38.876 Y47.575 F600 M3 S1000
G1 X38.813 Y47.561 F600 M3 S1000
G1 X38.723 Y47.557 F600 M3 S1000
G1 X38.605 Y47.561 F600 M3 S1000
G1 X38.495 Y47.569 F600 M3 S1000
G1 X38.374 Y47.582 F600 M3 S1000
G1 X38.253 Y47.599 F600 M3 S1000
G1 X38.140 Y47.619 F600 M3 S1000
G1 X38.044 Y47.640 F600 M3 S1000
G1 X37.962 Y47.658 F600 M3 S1000
G1 X37.885 Y47.672 F600 M3 S1000
G1 X37.821 Y47.680 F600 M3 S1000
G1 X37.773 Y47.681 F600 M3 S1000
G1 X37.747 Y47.675 F600 M3 S1000
G1 X37.721 Y47.643 F600 M3 S1000
G1 X37.714 Y47.591 F600 M3 S1000
G1 X37.725 Y47.522 F600 M3 S1000
G1 X37.754 Y47.437 F600 M3 S1000
G1 X37.799 Y47.339 F600 M3 S1000
G1 X37.859 Y47.231 F600 M3 S1000
G1 X37.935 Y47.114 F600 M3 S1000
G1 X37.980 Y47.049 F600 M3 S1000
G1 X38.037 Y46.965 F600 M3 S1000
G1 X38.104 Y46.866 F600 M3 S1000
G1 X38.180 Y46.755 F600 M3 S1000
G1 X38.261 Y46.635 F600 M3 S1000
G1 X38.345 Y46.511 F600 M3 S1000
G1 X38.430 Y46.386 F600 M3 S1000
G1 X38.513 Y46.264 F600 M3 S1000
G1 X38.594 Y46.147 F600 M3 S1000
G1 X38.689 Y46.011 F600 M3 S1000
G1 X38.798 Y45.861 F600 M3 S1000
G1 X38.916 Y45.701 F600 M3 S1000
G1 X39.040 Y45.534 F600 M3 S1000
G1 X39.168 Y45.365 F600 M3 S1000
G1 X39.296 Y45.198 F600 M3 S1000
G1 X39.422 Y45.036 F600 M3 S1000
G1 X39.543 Y44.884 F600 M3 S1000
G1 X39.724 Y44.655 F600 M3 S1000
G1 X39.904 Y44.428 F600 M3 S1000
G1 X40.081 Y44.202 F600 M3 S1000
G1 X40.254 Y43.980 F600 M3 S1000
G1 X40.423 Y43.762 F600 M3 S1000
G1 X40.585 Y43.552 F600 M3 S1000
G1 X40.741 Y43.348 F600 M3 S1000
G1 X40.889 Y43.155 F600 M3 S1000
G1 X41.027 Y42.971 F600 M3 S1000
G1 X41.156 Y42.800 F600 M3 S1000
G1 X41.273 Y42.642 F600 M3 S1000
G1 X41.379 Y42.499 F600 M3 S1000
G1 X41.470 Y42.371 F600 M3 S1000
G1 X41.548 Y42.262 F600 M3 S1000
G1 X41.610 Y42.171 F600 M3 S1000
G1 X41.656 Y42.101 F600 M3 S1000
G1 X41.684 Y42.053 F600 M3 S1000
G1 X41.694 Y42.028 F600 M3 S1000
G1 X41.681 Y42.006 F600 M3 S1000
G1 X41.647 Y41.973 F600 M3 S1000
G1 X41.594 Y41.932 F600 M3 S1000
G1 X41.528 Y41.887 F600 M3 S1000
G1 X41.453 Y41.839 F600 M3 S1000
G1 X41.347 Y41.770 F600 M3 S1000
G1 X41.272 Y41.708 F600 M3 S1000
G1 X41.227 Y41.654 F600 M3 S1000
G1 X41.212 Y41.607 F600 M3 S1000
G1 X41.217 Y41.582 F600 M3 S1000
G1 X41.234 Y41.542 F600 M3 S1000
G1 X41.262 Y41.485 F600 M3 S1000
G1 X41.302 Y41.411 F600 M3 S1000
G1 X41.355 Y41.319 F600 M3 S1000
G1 X41.421 Y41.209 F600 M3 S1000
G1 X41.502 Y41.078 F600 M3 S1000
G1 X41.596 Y40.927 F600 M3 S1000
G1 X41.707 Y40.754 F600 M3 S1000
G1 X41.832 Y40.558 F600 M3 S1000
G1 X41.974 Y40.339 F600 M3 S1000
G1 X42.133 Y40.095 F600 M3 S1000
G1 X42.310 Y39.826 F600 M3 S1000
G1 X42.504 Y39.531 F600 M3 S1000
G1 X42.618 Y39.356 F600 M3 S1000
G1 X42.719 Y39.202 F600 M3 S1000
G1 X42.810 Y39.062 F600 M3 S1000
G1 X42.892 Y38.934 F600 M3 S1000
G1 X42.969 Y38.813 F600 M3 S1000
G1 X43.042 Y38.696 F600 M3 S1000
G1 X43.114 Y38.579 F600 M3 S1000
G1 X43.188 Y38.457 F600 M3 S1000
G1 X43.266 Y38.327 F600 M3 S1000
G1 X43.350 Y38.185 F600 M3 S1000
G1 X43.443 Y38.027 F600 M3 S1000
G1 X43.547 Y37.849 F600 M3 S1000
G1 X43.665 Y37.647 F600 M3 S1000
G1 X43.719 Y37.552 F600 M3 S1000
G1 X43.783 Y37.437 F600 M3 S1000
G1 X43.855 Y37.305 F600 M3 S1000
G1 X43.934 Y37.157 F600 M3 S1000
G1 X44.019 Y36.996 F600 M3 S1000
G1 X44.109 Y36.825 F600 M3 S1000
G1 X44.202 Y36.645 F600 M3 S1000
G1 X44.298 Y36.460 F600 M3 S1000
G1 X44.395 Y36.270 F600 M3 S1000
G1 X44.492 Y36.080 F600 M3 S1000
G1 X44.588 Y35.890 F600 M3 S1000
G1 X44.682 Y35.704 F600 M3 S1000
G1 X44.773 Y35.523 F600 M3 S1000
G1 X44.859 Y35.350 F600 M3 S1000
G1 X44.939 Y35.187 F600 M3 S1000
G1 X45.013 Y35.037 F600 M3 S1000
G1 X45.078 Y34.901 F600 M3 S1000
G1 X45.134 Y34.783 F600 M3 S1000
G1 X45.180 Y34.684 F600 M3 S1000
G1 X45.214 Y34.607 F600 M3 S1000
G1 X45.235 Y34.554 F600 M3 S1000
G1 X45.242 Y34.528 F600 M3 S1000
G1 X45.234 Y34.486 F600 M3 S1000
G1 X45.207 Y34.459 F600 M3 S1000
G1 X45.158 Y34.445 F600 M3 S1000
G1 X45.085 Y34.445 F600 M3 S1000
G1 X44.986 Y34.458 F600 M3 S1000
G1 X44.857 Y34.484 F600 M3 S1000
G1 X44.592 Y34.544 F600 M3 S1000
G1 X44.343 Y34.598 F600 M3 S1000
G1 X44.112 Y34.644 F600 M3 S1000
G1 X43.900 Y34.684 F600 M3 S1000
G1 X43.709 Y34.717 F600 M3 S1000
G1 X43.540 Y34.743 F600 M3 S1000
G1 X43.395 Y34.760 F600 M3 S1000
G1 X43.275 Y34.770 F600 M3 S1000
G1 X43.182 Y34.772 F600 M3 S1000
G1 X43.117 Y34.766 F600 M3 S1000
G1 X43.083 Y34.751 F600 M3 S1000
G1 X43.083 Y34.732 F600 M3 S1000
G1 X43.096 Y34.689 F600 M3 S1000
G1 X43.121 Y34.627 F600 M3 S1000
G1 X43.156 Y34.550 F600 M3 S1000
G1 X43.199 Y34.462 F600 M3 S1000
G1 X43.249 Y34.365 F600 M3 S1000
G1 X43.293 Y34.275 F600 M3 S1000
G1 X43.346 Y34.155 F600 M3 S1000
G1 X43.406 Y34.008 F600 M3 S1000
G1 X43.472 Y33.839 F600 M3 S1000
G1 X43.543 Y33.650 F600 M3 S1000
G1 X43.618 Y33.446 F600 M3 S1000
G1 X43.695 Y33.229 F600 M3 S1000
G1 X43.773 Y33.004 F600 M3 S1000
G1 X43.851 Y32.773 F600 M3 S1000
G1 X43.928 Y32.540 F600 M3 S1000
G1 X44.002 Y32.309 F600 M3 S1000
G1 X44.073 Y32.083 F600 M3 S1000
G1 X44.142 Y31.843 F600 M3 S1000
G1 X44.215 Y31.578 F600 M3 S1000
G1 X44.289 Y31.292 F600 M3 S1000
G1 X44.365 Y30.989 F600 M3 S1000
G1 X44.440 Y30.675 F600 M3 S1000
G1 X44.514 Y30.354 F600 M3 S1000
G1 X44.586 Y30.030 F600 M3 S1000
G1 X44.655 Y29.708 F600 M3 S1000
G1 X44.720 Y29.393 F600 M3 S1000
G1 X44.779 Y29.090 F600 M3 S1000
G1 X44.831 Y28.802 F600 M3 S1000
G1 X44.877 Y28.535 F600 M3 S1000
G1 X44.914 Y28.294 F600 M3 S1000
G1 X44.934 Y28.150 F600 M3 S1000
G1 X44.955 Y28.000 F600 M3 S1000
G1 X44.975 Y27.852 F600 M3 S1000
G1 X44.994 Y27.714 F600 M3 S1000
G1 X45.010 Y27.592 F600 M3 S1000
G1 X45.023 Y27.496 F600 M3 S1000
G1 X45.036 Y27.385 F600 M3 S1000
G1 X45.047 Y27.248 F600 M3 S1000
G1 X45.055 Y27.090 F600 M3 S1000
G1 X45.061 Y26.915 F600 M3 S1000
G1 X45.065 Y26.727 F600 M3 S1000
G1 X45.067 Y26.530 F600 M3 S1000
G1 X45.067 Y26.329 F600 M3 S1000
G1 X45.065 Y26.128 F600 M3 S1000
G1 X45.061 Y25.930 F600 M3 S1000
G1 X45.056 Y25.741 F600 M3 S1000
G1 X45.048 Y25.564 F600 M3 S1000
G1 X45.039 Y25.404 F600 M3 S1000
G1 X45.028 Y25.265 F600 M3 S1000
G1 X45.015 Y25.150 F600 M3 S1000
G1 X45.001 Y25.065 F600 M3 S1000
G1 X44.963 Y24.911 F600 M3 S1000
G1 X44.923 Y24.771 F600 M3 S1000
G1 X44.883 Y24.646 F600 M3 S1000
G1 X44.843 Y24.540 F600 M3 S1000
G1 X44.804 Y24.452 F600 M3 S1000
G1 X44.768 Y24.387 F600 M3 S1000
G1 X44.734 Y24.346 F600 M3 S1000
G1 X44.719 Y24.336 F600 M3 S1000
G1 X44.702 Y24.330 F600 M3 S1000
G1 X44.682 Y24.331 F600 M3 S1000
G1 X44.657 Y24.339 F600 M3 S1000
G1 X44.624 Y24.356 F600 M3 S1000
G1 X44.581 Y24.383 F600 M3 S1000
G1 X44.527 Y24.423 F600 M3 S1000
G1 X44.459 Y24.475 F600 M3 S1000
G1 X44.376 Y24.543 F600 M3 S1000
G1 X44.275 Y24.628 F600 M3 S1000
G1 X44.154 Y24.730 F600 M3 S1000
G1 X44.011 Y24.852 F600 M3 S1000
G1 X43.845 Y24.995 F600 M3 S1000
G1 X43.693 Y25.120 F600 M3 S1000
G1 X43.547 Y25.231 F600 M3 S1000
G1 X43.410 Y25.327 F600 M3 S1000
G1 X43.285 Y25.405 F600 M3 S1000
G1 X43.173 Y25.466 F600 M3 S1000
G1 X43.079 Y25.506 F600 M3 S1000
G1 X43.004 Y25.525 F600 M3 S1000
G1 X42.951 Y25.520 F600 M3 S1000
G1 X42.924 Y25.505 F600 M3 S1000
G1 X42.905 Y25.479 F600 M3 S1000
G1 X42.891 Y25.437 F600 M3 S1000
G1 X42.882 Y25.377 F600 M3 S1000
G1 X42.878 Y25.293 F600 M3 S1000
G1 X42.877 Y25.183 F600 M3 S1000
G1 X42.873 Y25.053 F600 M3 S1000
G1 X42.861 Y24.918 F600 M3 S1000
G1 X42.841 Y24.775 F600 M3 S1000
G1 X42.812 Y24.622 F600 M3 S1000
G1 X42.773 Y24.456 F600 M3 S1000
G1 X42.723 Y24.274 F600 M3 S1000
G1 X42.663 Y24.073 F600 M3 S1000
G1 X42.590 Y23.852 F600 M3 S1000
G1 X42.504 Y23.606 F600 M3 S1000
G1 X42.455 Y23.474 F600 M3 S1000
G1 X42.397 Y23.322 F600 M3 S1000
G1 X42.333 Y23.159 F600 M3 S1000
G1 X42.264 Y22.989 F600 M3 S1000
G1 X42.194 Y22.819 F600 M3 S1000
G1 X42.124 Y22.654 F600 M3 S1000
G1 X42.057 Y22.502 F600 M3 S1000
G1 X41.996 Y22.367 F600 M3 S1000
G1 X41.943 Y22.257 F600 M3 S1000
G1 X41.908 Y22.177 F600 M3 S1000
G1 X41.888 Y22.111 F600 M3 S1000
G1 X41.884 Y22.061 F600 M3 S1000
G1 X41.895 Y22.033 F600 M3 S1000
G1 X41.920 Y22.019 F600 M3 S1000
G1 X41.974 Y21.995 F600 M3 S1000
G1 X42.053 Y21.964 F600 M3 S1000
G1 X42.154 Y21.926 F600 M3 S1000
G1 X42.271 Y21.884 F600 M3 S1000
G1 X42.403 Y21.839 F600 M3 S1000
G1 X42.544 Y21.792 F600 M3 S1000
G1 X42.692 Y21.741 F600 M3 S1000
G1 X42.847 Y21.687 F600 M3 S1000
G1 X43.003 Y21.631 F600 M3 S1000
G1 X43.154 Y21.576 F600 M3 S1000
G1 X43.294 Y21.524 F600 M3 S1000
G1 X43.416 Y21.477 F600 M3 S1000
G1 X43.516 Y21.437 F600 M3 S1000
G1 X43.617 Y21.397 F600 M3 S1000
G1 X43.713 Y21.361 F600 M3 S1000
G1 X43.802 Y21.330 F600 M3 S1000
G1 X43.877 Y21.305 F600 M3 S1000
G1 X43.935 Y21.290 F600 M3 S1000
G1 X43.972 Y21.284 F600 M3 S1000
G1 X44.010 Y21.297 F600 M3 S1000
G1 X44.063 Y21.334 F600 M3 S1000
G1 X44.129 Y21.394 F600 M3 S1000
G1 X44.206 Y21.474 F600 M3 S1000
G1 X44.294 Y21.572 F600 M3 S1000
G1 X44.390 Y21.687 F600 M3 S1000
G1 X44.494 Y21.816 F600 M3 S1000
G1 X44.602 Y21.958 F600 M3 S1000
G1 X44.715 Y22.110 F600 M3 S1000
G1 X44.830 Y22.270 F600 M3 S1000
G1 X44.946 Y22.436 F600 M3 S1000
G1 X45.061 Y22.607 F600 M3 S1000
G1 X45.173 Y22.780 F600 M3 S1000
G1 X45.282 Y22.953 F600 M3 S1000
G1 X45.406 Y23.170 F600 M3 S1000
G1 X45.532 Y23.413 F600 M3 S1000
G1 X45.658 Y23.680 F600 M3 S1000
G1 X45.783 Y23.965 F600 M3 S1000
G1 X45.905 Y24.264 F600 M3 S1000
G1 X46.022 Y24.572 F600 M3 S1000
G1 X46.132 Y24.886 F600 M3 S1000
G1 X46.233 Y25.201 F600 M3 S1000
G1 X46.324 Y25.511 F600 M3 S1000
G1 X46.403 Y25.814 F600 M3 S1000
G1 X46.532 Y26.404 F600 M3 S1000
G1 X46.633 Y27.009 F600 M3 S1000
G1 X46.707 Y27.626 F600 M3 S1000
G1 X46.754 Y28.254 F600 M3 S1000
G1 X46.773 Y28.889 F600 M3 S1000
G1 X46.766 Y29.530 F600 M3 S1000
G1 X46.730 Y30.174 F600 M3 S1000
G1 X46.668 Y30.819 F600 M3 S1000
G1 X46.578 Y31.464 F600 M3 S1000
G1 X46.460 Y32.105 F600 M3 S1000
G1 X46.420 Y32.285 F600 M3 S1000
G1 X46.375 Y32.467 F600 M3 S1000
G1 X46.325 Y32.648 F600 M3 S1000
G1 X46.271 Y32.824 F600 M3 S1000
G1 X46.216 Y32.990 F600 M3 S1000
G1 X46.161 Y33.142 F600 M3 S1000
G1 X46.106 Y33.276 F600 M3 S1000
G1 X46.054 Y33.387 F600 M3 S1000
G1 X46.005 Y33.472 F600 M3 S1000
G1 X45.964 Y33.541 F600 M3 S1000
G1 X45.931 Y33.608 F600 M3 S1000
G1 X45.908 Y33.664 F600 M3 S1000
G1 X45.899 Y33.704 F600 M3 S1000
G1 X45.912 Y33.736 F600 M3 S1000
G1 X45.948 Y33.758 F600 M3 S1000
G1 X46.005 Y33.768 F600 M3 S1000
G1 X46.080 Y33.768 F600 M3 S1000
G1 X46.170 Y33.758 F600 M3 S1000
G1 X46.274 Y33.738 F600 M3 S1000
G1 X46.388 Y33.708 F600 M3 S1000
G1 X46.510 Y33.670 F600 M3 S1000
G1 X46.637 Y33.623 F600 M3 S1000
G1 X46.767 Y33.568 F600 M3 S1000
G1 X46.826 Y33.545 F600 M3 S1000
G1 X46.880 Y33.530 F600 M3 S1000
G1 X46.924 Y33.524 F600 M3 S1000
G1 X46.951 Y33.529 F600 M3 S1000
G1 X46.976 Y33.562 F600 M3 S1000
G1 X46.992 Y33.623 F600 M3 S1000
G1 X47.000 Y33.709 F600 M3 S1000
G1 X46.998 Y33.819 F600 M3 S1000
G1 X46.989 Y33.951 F600 M3 S1000
G1 X46.972 Y34.103 F600 M3 S1000
G1 X46.947 Y34.273 F600 M3 S1000
G1 X46.916 Y34.459 F600 M3 S1000
G1 X46.878 Y34.659 F600 M3 S1000
G1 X46.834 Y34.871 F600 M3 S1000
G1 X46.783 Y35.094 F600 M3 S1000
G1 X46.728 Y35.324 F600 M3 S1000
G1 X46.667 Y35.560 F600 M3 S1000
G1 X46.602 Y35.801 F600 M3 S1000
G1 X46.532 Y36.044 F600 M3 S1000
G1 X46.459 Y36.288 F600 M3 S1000
G1 X46.381 Y36.530 F600 M3 S1000
G1 X46.214 Y37.004 F600 M3 S1000
G1 X46.023 Y37.487 F600 M3 S1000
G1 X45.809 Y37.977 F600 M3 S1000
G1 X45.575 Y38.469 F600 M3 S1000
G1 X45.322 Y38.960 F600 M3 S1000
G1 X45.052 Y39.448 F600 M3 S1000
G1 X44.766 Y39.928 F600 M3 S1000
G1 X44.467 Y40.398 F600 M3 S1000
G1 X44.375 Y40.538 F600 M3 S1000
G1 X44.289 Y40.672 F600 M3 S1000
G1 X44.213 Y40.794 F600 M3 S1000
G1 X44.148 Y40.904 F600 M3 S1000
G1 X44.095 Y40.997 F600 M3 S1000
G1 X44.056 Y41.071 F600 M3 S1000
G1 X44.033 Y41.122 F600 M3 S1000
G1 X44.029 Y41.147 F600 M3 S1000
G1 X44.053 Y41.168 F600 M3 S1000
G1 X44.105 Y41.189 F600 M3 S1000
G1 X44.181 Y41.208 F600 M3 S1000
G1 X44.277 Y41.225 F600 M3 S1000
G1 X44.388 Y41.240 F600 M3 S1000
G1 X44.509 Y41.251 F600 M3 S1000
G1 X44.636 Y41.258 F600 M3 S1000
G1 X44.765 Y41.261 F600 M3 S1000
G1 X44.832 Y41.265 F600 M3 S1000
G1 X44.891 Y41.275 F600 M3 S1000
G1 X44.935 Y41.289 F600 M3 S1000
G1 X44.958 Y41.305 F600 M3 S1000
G1 X44.960 Y41.339 F600 M3 S1000
G1 X44.941 Y41.397 F600 M3 S1000
G1 X44.903 Y41.477 F600 M3 S1000
G1 X44.846 Y41.578 F600 M3 S1000
G1 X44.771 Y41.699 F600 M3 S1000
G1 X44.680 Y41.837 F600 M3 S1000
G1 X44.573 Y41.991 F600 M3 S1000
G1 X44.452 Y42.160 F600 M3 S1000
G1 X44.318 Y42.341 F600 M3 S1000
G1 X44.171 Y42.535 F600 M3 S1000
G1 X44.014 Y42.738 F600 M3 S1000
G1 X43.846 Y42.949 F600 M3 S1000
G1 X43.670 Y43.167 F600 M3 S1000
G1 X43.486 Y43.390 F600 M3 S1000
G1 X43.390 Y43.503 F600 M3 S1000
G1 X43.275 Y43.635 F600 M3 S1000
G1 X43.144 Y43.782 F600 M3 S1000
G1 X43.001 Y43.941 F600 M3 S1000
G1 X42.848 Y44.109 F600 M3 S1000
G1 X42.687 Y44.282 F600 M3 S1000
G1 X42.523 Y44.458 F600 M3 S1000
G1 X42.357 Y44.632 F600 M3 S1000
G1 X42.194 Y44.801 F600 M3 S1000
G1 X42.035 Y44.963 F600 M3 S1000
G1 X41.831 Y45.171 F600 M3 S1000
G1 X41.651 Y45.357 F600 M3 S1000
G1 X41.492 Y45.522 F600 M3 S1000
G1 X41.353 Y45.669 F600 M3 S1000
G1 X41.233 Y45.798 F600 M3 S1000
G1 X41.131 Y45.912 F600 M3 S1000
G1 X41.045 Y46.013 F600 M3 S1000
G1 X40.974 Y46.101 F600 M3 S1000
G1 X40.917 Y46.180 F600 M3 S1000
G1 X40.871 Y46.251 F600 M3 S1000
G1 X40.836 Y46.316 F600 M3 S1000
G1 X40.811 Y46.375 F600 M3 S1000
G1 X40.793 Y46.433 F600 M3 S1000
G1 X40.782 Y46.489 F600 M3 S1000
G1 X40.776 Y46.546 F600 M3 S1000
G1 X40.774 Y46.606 F600 M3 S1000
G1 X40.779 Y46.825 F600 M3 S1000
G1 X40.795 Y47.057 F600 M3 S1000
G1 X40.823 Y47.296 F600 M3 S1000
G1 X40.860 Y47.536 F600 M3 S1000
G1 X40.905 Y47.772 F600 M3 S1000
G1 X40.958 Y47.998 F600 M3 S1000
G1 X41.018 Y48.208 F600 M3 S1000
G1 X41.082 Y48.397 F600 M3 S1000
G1 X41.151 Y48.560 F600 M3 S1000
G1 X41.227 Y48.709 F600 M3 S1000
G1 X41.312 Y48.848 F600 M3 S1000
G1 X41.407 Y48.979 F600 M3 S1000
G1 X41.516 Y49.106 F600 M3 S1000
G1 X41.642 Y49.232 F600 M3 S1000
G1 X41.788 Y49.359 F600 M3 S1000
G1 X41.958 Y49.492 F600 M3 S1000
G1 X42.154 Y49.633 F600 M3 S1000
G1 X42.390 Y49.798 F600 M3 S1000
G1 X42.602 Y49.947 F600 M3 S1000
G1 X42.790 Y50.081 F600 M3 S1000
G1 X42.959 Y50.201 F600 M3 S1000
G1 X43.109 Y50.310 F600 M3 S1000
G1 X43.244 Y50.410 F600 M3 S1000
G1 X43.365 Y50.502 F600 M3 S1000
G1 X43.475 Y50.588 F600 M3 S1000
G1 X43.576 Y50.670 F600 M3 S1000
G1 X43.671 Y50.750 F600 M3 S1000
G1 X43.762 Y50.830 F600 M3 S1000
G1 X43.850 Y50.910 F600 M3 S1000
G1 X43.940 Y50.994 F600 M3 S1000
G1 X44.032 Y51.083 F600 M3 S1000
G1 X44.130 Y51.179 F600 M3 S1000
G1 X44.352 Y51.410 F600 M3 S1000
G1 X44.549 Y51.635 F600 M3 S1000
G1 X44.725 Y51.858 F600 M3 S1000
G1 X44.881 Y52.084 F600 M3 S1000
G1 X45.019 Y52.316 F600 M3 S1000
G1 X45.144 Y52.559 F600 M3 S1000
G1 X45.256 Y52.818 F600 M3 S1000
G1 X45.358 Y53.095 F600 M3 S1000
G1 X45.453 Y53.396 F600 M3 S1000
G1 X45.471 Y53.480 F600 M3 S1000
G1 X45.487 Y53.594 F600 M3 S1000
G1 X45.500 Y53.733 F600 M3 S1000
G1 X45.511 Y53.893 F600 M3 S1000
G1 X45.519 Y54.069 F600 M3 S1000
G1 X45.524 Y54.256 F600 M3 S1000
G1 X45.527 Y54.451 F600 M3 S1000
G1 X45.526 Y54.648 F600 M3 S1000
G1 X45.523 Y54.843 F600 M3 S1000
G1 X45.518 Y55.032 F600 M3 S1000
G1 X45.509 Y55.209 F600 M3 S1000
G1 X45.497 Y55.371 F600 M3 S1000
G1 X45.483 Y55.513 F600 M3 S1000
G1 X45.466 Y55.630 F600 M3 S1000
G1 X45.406 Y55.917 F600 M3 S1000
G1 X45.326 Y56.223 F600 M3 S1000
G1 X45.228 Y56.542 F600 M3 S1000
G1 X45.115 Y56.868 F600 M3 S1000
G1 X44.989 Y57.196 F600 M3 S1000
G1 X44.852 Y57.519 F600 M3 S1000
G1 X44.706 Y57.830 F600 M3 S1000
G1 X44.554 Y58.123 F600 M3 S1000
G1 X44.411 Y58.379 F600 M3 S1000
G1 X44.272 Y58.610 F600 M3 S1000
G1 X44.133 Y58.820 F600 M3 S1000
G1 X43.992 Y59.015 F600 M3 S1000
G1 X43.844 Y59.198 F600 M3 S1000
G1 X43.687 Y59.376 F600 M3 S1000
G1 X43.516 Y59.551 F600 M3 S1000
G1 X43.387 Y59.676 F600 M3 S1000
G1 X43.273 Y59.781 F600 M3 S1000
G1 X43.169 Y59.868 F600 M3 S1000
G1 X43.069 Y59.943 F600 M3 S1000
G1 X42.968 Y60.009 F600 M3 S1000
G1 X42.861 Y60.071 F600 M3 S1000
G1 X42.741 Y60.134 F600 M3 S1000
G1 X42.472 Y60.259 F600 M3 S1000
G1 X42.218 Y60.361 F600 M3 S1000
G1 X41.971 Y60.443 F600 M3 S1000
G1 X41.724 Y60.507 F600 M3 S1000
G1 X41.468 Y60.554 F600 M3 S1000
G1 X41.195 Y60.587 F600 M3 S1000
G1 X40.896 Y60.607 F600 M3 S1000
G1 X40.540 Y60.615 F600 M3 S1000
G1 X40.207 Y60.604 F600 M3 S1000
G1 X39.893 Y60.571 F600 M3 S1000
G1 X39.592 Y60.516 F600 M3 S1000
G1 X39.300 Y60.438 F600 M3 S1000
G1 X39.011 Y60.335 F600 M3 S1000
G1 X38.722 Y60.206 F600 M3 S1000
G1 X38.426 Y60.051 F600 M3 S1000
G1 X38.301 Y59.975 F600 M3 S1000
G1 X38.171 Y59.884 F600 M3 S1000
G1 X38.034 Y59.777 F600 M3 S1000
G1 X37.890 Y59.654 F600 M3 S1000
G1 X37.738 Y59.514 F600 M3 S1000
G1 X37.578 Y59.354 F600 M3 S1000
G1 X37.407 Y59.176 F600 M3 S1000
G1 X37.226 Y58.977 F600 M3 S1000
G1 X37.034 Y58.757 F600 M3 S1000
G1 X36.829 Y58.516 F600 M3 S1000
G1 X36.612 Y58.251 F600 M3 S1000
G1 X36.381 Y57.963 F600 M3 S1000
G1 X36.134 Y57.650 F600 M3 S1000
G1 X35.936 Y57.411 F600 M3 S1000
G1 X35.725 Y57.185 F600 M3 S1000
G1 X35.504 Y56.976 F600 M3 S1000
G1 X35.277 Y56.786 F600 M3 S1000
G1 X35.048 Y56.618 F600 M3 S1000
G1 X34.820 Y56.476 F600 M3 S1000
G1 X34.629 Y56.370 F600 M3 S1000
G1 X34.459 Y56.281 F600 M3 S1000
G1 X34.307 Y56.208 F600 M3 S1000
G1 X34.169 Y56.150 F600 M3 S1000
G1 X34.042 Y56.105 F600 M3 S1000
G1 X33.924 Y56.072 F600 M3 S1000
G1 X33.810 Y56.050 F600 M3 S1000
G1 X33.699 Y56.038 F600 M3 S1000
G1 X33.652 Y56.035 F600 M3 S1000
G1 X33.608 Y56.032 F600 M3 S1000
G1 X33.565 Y56.032 F600 M3 S1000
G1 X33.521 Y56.033 F600 M3 S1000
G1 X33.475 Y56.037 F600 M3 S1000
G1 X33.424 Y56.044 F600 M3 S1000
G1 X33.367 Y56.054 F600 M3 S1000
G1 X33.303 Y56.069 F600 M3 S1000
G1 X33.228 Y56.088 F600 M3 S1000
G1 X33.141 Y56.112 F600 M3 S1000
G1 X33.041 Y56.142 F600 M3 S1000
G1 X32.926 Y56.178 F600 M3 S1000
G1 X32.793 Y56.221 F600 M3 S1000
G1 X32.641 Y56.271 F600 M3 S1000
G1 X32.468 Y56.328 F600 M3 S1000
G1 X32.272 Y56.394 F600 M3 S1000
G1 X32.052 Y56.469 F600 M3 S1000
G1 X31.805 Y56.553 F600 M3 S1000
G1 X31.530 Y56.647 F600 M3 S1000
G1 X31.331 Y56.715 F600 M3 S1000
G1 X31.137 Y56.781 F600 M3 S1000
G1 X30.951 Y56.844 F600 M3 S1000
G1 X30.775 Y56.904 F600 M3 S1000
G1 X30.611 Y56.959 F600 M3 S1000
G1 X30.462 Y57.008 F600 M3 S1000
G1 X30.330 Y57.052 F600 M3 S1000
G1 X30.217 Y57.088 F600 M3 S1000
G1 X30.126 Y57.118 F600 M3 S1000
G1 X30.059 Y57.139 F600 M3 S1000
G1 X30.019 Y57.151 F600 M3 S1000
G1 X29.639 Y57.251 F600 M3 S1000
G1 X29.284 Y57.342 F600 M3 S1000
G1 X28.953 Y57.424 F600 M3 S1000
G1 X28.640 Y57.499 F600 M3 S1000
G1 X28.343 Y57.566 F600 M3 S1000
G1 X28.057 Y57.628 F600 M3 S1000
G1 X27.780 Y57.683 F600 M3 S1000
G1 X27.508 Y57.734 F600 M3 S1000
G1 X27.237 Y57.781 F600 M3 S1000
G1 X27.145 Y57.793 F600 M3 S1000
G1 X27.029 Y57.803 F600 M3 S1000
G1 X26.892 Y57.813 F600 M3 S1000
G1 X26.743 Y57.822 F600 M3 S1000
G1 X26.586 Y57.828 F600 M3 S1000
G1 X26.427 Y57.832 F600 M3 S1000
G1 X26.273 Y57.834 F600 M3 S1000
G1 X25.974 Y57.828 F600 M3 S1000
G1 X25.697 Y57.807 F600 M3 S1000
G1 X25.432 Y57.772 F600 M3 S1000
G1 X25.174 Y57.720 F600 M3 S1000
G1 X24.914 Y57.649 F600 M3 S1000
G1 X24.644 Y57.559 F600 M3 S1000
G1 X24.359 Y57.448 F600 M3 S1000
G1 X24.248 Y57.403 F600 M3 S1000
G1 X24.132 Y57.355 F600 M3 S1000
G1 X24.015 Y57.308 F600 M3 S1000
G1 X23.905 Y57.264 F600 M3 S1000
G1 X23.807 Y57.225 F600 M3 S1000
G1 X23.728 Y57.194 F600 M3 S1000
G1 X23.478 Y57.102 F600 M3 S1000
G1 X23.027 Y57.304 F600 M3 S1000
G1 X22.745 Y57.423 F600 M3 S1000
G1 X22.477 Y57.524 F600 M3 S1000
G1 X22.210 Y57.611 F600 M3 S1000
G1 X21.934 Y57.687 F600 M3 S1000
G1 X21.638 Y57.755 F600 M3 S1000
G1 X21.532 Y57.772 F600 M3 S1000
G1 X21.399 Y57.787 F600 M3 S1000
G1 X21.247 Y57.800 F600 M3 S1000
G1 X21.079 Y57.809 F600 M3 S1000
G1 X20.900 Y57.816 F600 M3 S1000
G1 X20.716 Y57.820 F600 M3 S1000
G1 X20.532 Y57.821 F600 M3 S1000
G1 X20.353 Y57.819 F600 M3 S1000
G1 X20.184 Y57.814 F600 M3 S1000
G1 X20.029 Y57.805 F600 M3 S1000
G1 X19.894 Y57.793 F600 M3 S1000
G1 X19.785 Y57.777 F600 M3 S1000
G1 X19.429 Y57.714 F600 M3 S1000
G1 X19.099 Y57.653 F600 M3 S1000
G1 X18.795 Y57.593 F600 M3 S1000
G1 X18.517 Y57.535 F600 M3 S1000
G1 X18.263 Y57.479 F600 M3 S1000
G1 X18.033 Y57.424 F600 M3 S1000
G1 X17.826 Y57.370 F600 M3 S1000
G1 X17.643 Y57.317 F600 M3 S1000
G1 X17.144 Y57.165 F600 M3 S1000
G1 X16.672 Y57.020 F600 M3 S1000
G1 X16.229 Y56.880 F600 M3 S1000
G1 X15.814 Y56.747 F600 M3 S1000
G1 X15.427 Y56.620 F600 M3 S1000
G1 X15.070 Y56.499 F600 M3 S1000
G1 X14.742 Y56.386 F600 M3 S1000
G1 X14.445 Y56.279 F600 M3 S1000
G1 X14.302 Y56.228 F600 M3 S1000
G1 X14.154 Y56.178 F600 M3 S1000
G1 X14.007 Y56.130 F600 M3 S1000
G1 X13.866 Y56.086 F600 M3 S1000
G1 X13.738 Y56.049 F600 M3 S1000
G1 X13.626 Y56.019 F600 M3 S1000
G1 X13.538 Y55.998 F600 M3 S1000
G1 X13.436 Y55.977 F600 M3 S1000
G1 X13.355 Y55.962 F600 M3 S1000
G1 X13.289 Y55.954 F600 M3 S1000
G1 X13.232 Y55.955 F600 M3 S1000
G1 X13.177 Y55.963 F600 M3 S1000
G1 X13.118 Y55.980 F600 M3 S1000
G1 X13.047 Y56.006 F600 M3 S1000
G1 X12.960 Y56.042 F600 M3 S1000
G1 X12.747 Y56.139 F600 M3 S1000
G1 X12.526 Y56.252 F600 M3 S1000
G1 X12.303 Y56.378 F600 M3 S1000
G1 X12.082 Y56.514 F600 M3 S1000
G1 X11.869 Y56.656 F600 M3 S1000
G1 X11.669 Y56.801 F600 M3 S1000
G1 X11.488 Y56.945 F600 M3 S1000
G1 X11.330 Y57.085 F600 M3 S1000
G1 X11.276 Y57.139 F600 M3 S1000
G1 X11.205 Y57.215 F600 M3 S1000
G1 X11.118 Y57.310 F600 M3 S1000
G1 X11.019 Y57.420 F600 M3 S1000
G1 X10.910 Y57.543 F600 M3 S1000
G1 X10.794 Y57.676 F600 M3 S1000
G1 X10.673 Y57.816 F600 M3 S1000
G1 X10.550 Y57.960 F600 M3 S1000
G1 X10.427 Y58.106 F600 M3 S1000
G1 X10.214 Y58.360 F600 M3 S1000
G1 X10.019 Y58.589 F600 M3 S1000
G1 X9.840 Y58.796 F600 M3 S1000
G1 X9.677 Y58.981 F600 M3 S1000
G1 X9.527 Y59.147 F600 M3 S1000
G1 X9.388 Y59.295 F600 M3 S1000
G1 X9.258 Y59.427 F600 M3 S1000
G1 X9.136 Y59.544 F600 M3 S1000
G1 X9.020 Y59.650 F600 M3 S1000
G1 X8.908 Y59.744 F600 M3 S1000
G1 X8.799 Y59.829 F600 M3 S1000
G1 X8.689 Y59.908 F600 M3 S1000
G1 X8.579 Y59.980 F600 M3 S1000
G1 X8.465 Y60.049 F600 M3 S1000
G1 X8.346 Y60.116 F600 M3 S1000
G1 X8.140 Y60.225 F600 M3 S1000
G1 X7.941 Y60.317 F600 M3 S1000
G1 X7.744 Y60.393 F600 M3 S1000
G1 X7.544 Y60.456 F600 M3 S1000
G1 X7.337 Y60.506 F600 M3 S1000
G1 X7.118 Y60.545 F600 M3 S1000
G1 X6.882 Y60.573 F600 M3 S1000
G1 X6.624 Y60.592 F600 M3 S1000
G1 X6.340 Y60.603 F600 M3 S1000
G1 X6.192 Y60.606 F600 M3 S1000
G1 X6.050 Y60.608 F600 M3 S1000
G1 X5.918 Y60.609 F600 M3 S1000
G1 X5.797 Y60.609 F600 M3 S1000
G1 X5.693 Y60.608 F600 M3 S1000
G1 X5.607 Y60.606 F600 M3 S1000
G1 X5.545 Y60.603 F600 M3 S1000
G1 X5.508 Y60.598 F600 M3 S1000
G1 X5.508 Y60.598 F600 M3 S1000 ; Close path
M5 ; Laser off
M5 ; Laser off
G0 X30.233 Y54.051 ; Move to hatch start
G1 X30.613 Y54.431 F600 M3 S1000
M5 ; Laser off
G0 X28.774 Y54.289 ; Move to hatch start
G1 X29.392 Y54.907 F600 M3 S1000
M5 ; Laser off
G0 X27.221 Y54.433 ; Move to hatch start
G1 X28.048 Y55.260 F600 M3 S1000
M5 ; Laser off
G0 X25.481 Y54.390 ; Move to hatch start
G1 X26.566 Y55.474 F600 M3 S1000
M5 ; Laser off
G0 X23.436 Y54.042 ; Move to hatch start
G1 X24.641 Y55.246 F600 M3 S1000
M5 ; Laser off
G0 X22.020 Y54.322 ; Move to hatch start
G1 X22.744 Y55.047 F600 M3 S1000
M5 ; Laser off
G0 X20.490 Y54.490 ; Move to hatch start
G1 X21.480 Y55.480 F600 M3 S1000
M5 ; Laser off
G0 X18.637 Y54.335 ; Move to hatch start
G1 X19.785 Y55.482 F600 M3 S1000
M5 ; Laser off
G0 X16.626 Y54.021 ; Move to hatch start
G1 X17.514 Y54.908 F600 M3 S1000
M5 ; Laser off
G0 X29.649 Y54.163 ; Move to hatch start
G1 X28.712 Y55.101 F600 M3 S1000
M5 ; Laser off
G0 X27.711 Y54.405 ; Move to hatch start
G1 X26.648 Y55.468 F600 M3 S1000
M5 ; Laser off
G0 X25.995 Y54.423 ; Move to hatch start
G1 X25.044 Y55.375 F600 M3 S1000
M5 ; Laser off
G0 X24.545 Y54.176 ; Move to hatch start
G1 X23.807 Y54.915 F600 M3 S1000
M5 ; Laser off
G0 X22.913 Y54.112 ; Move to hatch start
G1 X21.561 Y55.464 F600 M3 S1000
M5 ; Laser off
G0 X20.847 Y54.480 ; Move to hatch start
G1 X19.838 Y55.490 F600 M3 S1000
M5 ; Laser off
G0 X19.223 Y54.407 ; Move to hatch start
G1 X18.443 Y55.188 F600 M3 S1000
M5 ; Laser off
G0 X17.724 Y54.210 ; Move to hatch start
G1 X17.152 Y54.781 F600 M3 S1000
M5 ; Laser off
G0 X16.286 Y53.951 ; Move to hatch start
G1 X15.972 Y54.265 F600 M3 S1000
M5 ; Laser off
G0 X19.614 Y55.455 ; Move to path start
G1 X19.256 Y55.384 F600 M3 S1000
G1 X18.897 Y55.303 F600 M3 S1000
G1 X18.538 Y55.214 F600 M3 S1000
G1 X18.182 Y55.116 F600 M3 S1000
G1 X17.833 Y55.012 F600 M3 S1000
G1 X17.492 Y54.901 F600 M3 S1000
G1 X17.163 Y54.786 F600 M3 S1000
G1 X16.849 Y54.666 F600 M3 S1000
G1 X16.551 Y54.542 F600 M3 S1000
G1 X16.273 Y54.417 F600 M3 S1000
G1 X16.017 Y54.290 F600 M3 S1000
G1 X15.786 Y54.163 F600 M3 S1000
G1 X15.584 Y54.036 F600 M3 S1000
G1 X15.478 Y53.961 F600 M3 S1000
G1 X15.402 Y53.897 F600 M3 S1000
G1 X15.355 Y53.845 F600 M3 S1000
G1 X15.338 Y53.806 F600 M3 S1000
G1 X15.350 Y53.781 F600 M3 S1000
G1 X15.391 Y53.769 F600 M3 S1000
G1 X15.462 Y53.772 F600 M3 S1000
G1 X15.562 Y53.790 F600 M3 S1000
G1 X15.824 Y53.850 F600 M3 S1000
G1 X16.070 Y53.905 F600 M3 S1000
G1 X16.304 Y53.955 F600 M3 S1000
G1 X16.529 Y54.001 F600 M3 S1000
G1 X16.749 Y54.045 F600 M3 S1000
G1 X16.966 Y54.085 F600 M3 S1000
G1 X17.184 Y54.124 F600 M3 S1000
G1 X17.407 Y54.161 F600 M3 S1000
G1 X17.638 Y54.197 F600 M3 S1000
G1 X17.880 Y54.233 F600 M3 S1000
G1 X18.136 Y54.269 F600 M3 S1000
G1 X18.410 Y54.305 F600 M3 S1000
G1 X18.706 Y54.343 F600 M3 S1000
G1 X19.025 Y54.383 F600 M3 S1000
G1 X19.373 Y54.426 F600 M3 S1000
G1 X19.790 Y54.467 F600 M3 S1000
G1 X20.202 Y54.488 F600 M3 S1000
G1 X20.607 Y54.491 F600 M3 S1000
G1 X21.000 Y54.474 F600 M3 S1000
G1 X21.381 Y54.438 F600 M3 S1000
G1 X21.745 Y54.382 F600 M3 S1000
G1 X22.089 Y54.307 F600 M3 S1000
G1 X22.307 Y54.254 F600 M3 S1000
G1 X22.496 Y54.208 F600 M3 S1000
G1 X22.659 Y54.169 F600 M3 S1000
G1 X22.799 Y54.137 F600 M3 S1000
G1 X22.920 Y54.110 F600 M3 S1000
G1 X23.026 Y54.089 F600 M3 S1000
G1 X23.118 Y54.072 F600 M3 S1000
G1 X23.202 Y54.060 F600 M3 S1000
G1 X23.280 Y54.051 F600 M3 S1000
G1 X23.356 Y54.046 F600 M3 S1000
G1 X23.432 Y54.042 F600 M3 S1000
G1 X23.513 Y54.040 F600 M3 S1000
G1 X23.601 Y54.040 F600 M3 S1000
G1 X23.690 Y54.040 F600 M3 S1000
G1 X23.772 Y54.042 F600 M3 S1000
G1 X23.849 Y54.045 F600 M3 S1000
G1 X23.924 Y54.051 F600 M3 S1000
G1 X24.001 Y54.060 F600 M3 S1000
G1 X24.083 Y54.072 F600 M3 S1000
G1 X24.174 Y54.089 F600 M3 S1000
G1 X24.277 Y54.111 F600 M3 S1000
G1 X24.395 Y54.139 F600 M3 S1000
G1 X24.532 Y54.173 F600 M3 S1000
G1 X24.691 Y54.214 F600 M3 S1000
G1 X24.876 Y54.263 F600 M3 S1000
G1 X25.090 Y54.320 F600 M3 S1000
G1 X25.177 Y54.342 F600 M3 S1000
G1 X25.268 Y54.361 F600 M3 S1000
G1 X25.366 Y54.376 F600 M3 S1000
G1 X25.474 Y54.390 F600 M3 S1000
G1 X25.596 Y54.401 F600 M3 S1000
G1 X25.736 Y54.411 F600 M3 S1000
G1 X25.897 Y54.419 F600 M3 S1000
G1 X26.082 Y54.427 F600 M3 S1000
G1 X26.295 Y54.434 F600 M3 S1000
G1 X26.511 Y54.439 F600 M3 S1000
G1 X26.716 Y54.441 F600 M3 S1000
G1 X26.914 Y54.440 F600 M3 S1000
G1 X27.107 Y54.437 F600 M3 S1000
G1 X27.298 Y54.431 F600 M3 S1000
G1 X27.492 Y54.421 F600 M3 S1000
G1 X27.691 Y54.407 F600 M3 S1000
G1 X27.899 Y54.389 F600 M3 S1000
G1 X28.118 Y54.368 F600 M3 S1000
G1 X28.352 Y54.342 F600 M3 S1000
G1 X28.604 Y54.311 F600 M3 S1000
G1 X28.878 Y54.276 F600 M3 S1000
G1 X29.176 Y54.235 F600 M3 S1000
G1 X29.502 Y54.189 F600 M3 S1000
G1 X29.582 Y54.176 F600 M3 S1000
G1 X29.689 Y54.156 F600 M3 S1000
G1 X29.821 Y54.132 F600 M3 S1000
G1 X29.971 Y54.103 F600 M3 S1000
G1 X30.136 Y54.071 F600 M3 S1000
G1 X30.311 Y54.036 F600 M3 S1000
G1 X30.492 Y53.999 F600 M3 S1000
G1 X30.675 Y53.962 F600 M3 S1000
G1 X30.855 Y53.924 F600 M3 S1000
G1 X31.029 Y53.887 F600 M3 S1000
G1 X31.191 Y53.852 F600 M3 S1000
G1 X31.338 Y53.820 F600 M3 S1000
G1 X31.464 Y53.790 F600 M3 S1000
G1 X31.554 Y53.775 F600 M3 S1000
G1 X31.619 Y53.772 F600 M3 S1000
G1 X31.660 Y53.782 F600 M3 S1000
G1 X31.675 Y53.804 F600 M3 S1000
G1 X31.665 Y53.838 F600 M3 S1000
G1 X31.629 Y53.881 F600 M3 S1000
G1 X31.565 Y53.935 F600 M3 S1000
G1 X31.506 Y53.974 F600 M3 S1000
G1 X31.423 Y54.024 F600 M3 S1000
G1 X31.317 Y54.082 F600 M3 S1000
G1 X31.194 Y54.147 F600 M3 S1000
G1 X31.058 Y54.217 F600 M3 S1000
G1 X30.910 Y54.289 F600 M3 S1000
G1 X30.756 Y54.364 F600 M3 S1000
G1 X30.599 Y54.438 F600 M3 S1000
G1 X30.443 Y54.510 F600 M3 S1000
G1 X30.291 Y54.578 F600 M3 S1000
G1 X30.147 Y54.640 F600 M3 S1000
G1 X30.015 Y54.695 F600 M3 S1000
G1 X29.898 Y54.741 F600 M3 S1000
G1 X29.800 Y54.776 F600 M3 S1000
G1 X29.350 Y54.921 F600 M3 S1000
G1 X28.906 Y55.050 F600 M3 S1000
G1 X28.471 Y55.163 F600 M3 S1000
G1 X28.046 Y55.261 F600 M3 S1000
G1 X27.632 Y55.341 F600 M3 S1000
G1 X27.233 Y55.405 F600 M3 S1000
G1 X26.849 Y55.452 F600 M3 S1000
G1 X26.483 Y55.481 F600 M3 S1000
G1 X26.137 Y55.492 F600 M3 S1000
G1 X25.813 Y55.486 F600 M3 S1000
G1 X25.646 Y55.475 F600 M3 S1000
G1 X25.491 Y55.460 F600 M3 S1000
G1 X25.342 Y55.439 F600 M3 S1000
G1 X25.195 Y55.411 F600 M3 S1000
G1 X25.047 Y55.376 F600 M3 S1000
G1 X24.892 Y55.332 F600 M3 S1000
G1 X24.727 Y55.278 F600 M3 S1000
G1 X24.547 Y55.213 F600 M3 S1000
G1 X24.349 Y55.135 F600 M3 S1000
G1 X24.126 Y55.043 F600 M3 S1000
G1 X23.959 Y54.974 F600 M3 S1000
G1 X23.815 Y54.917 F600 M3 S1000
G1 X23.691 Y54.874 F600 M3 S1000
G1 X23.581 Y54.843 F600 M3 S1000
G1 X23.481 Y54.825 F600 M3 S1000
G1 X23.388 Y54.820 F600 M3 S1000
G1 X23.295 Y54.828 F600 M3 S1000
G1 X23.200 Y54.850 F600 M3 S1000
G1 X23.097 Y54.884 F600 M3 S1000
G1 X22.982 Y54.933 F600 M3 S1000
G1 X22.851 Y54.994 F600 M3 S1000
G1 X22.698 Y55.070 F600 M3 S1000
G1 X22.586 Y55.125 F600 M3 S1000
G1 X22.478 Y55.177 F600 M3 S1000
G1 X22.376 Y55.224 F600 M3 S1000
G1 X22.285 Y55.266 F600 M3 S1000
G1 X22.208 Y55.299 F600 M3 S1000
G1 X22.149 Y55.323 F600 M3 S1000
G1 X22.111 Y55.337 F600 M3 S1000
G1 X22.069 Y55.346 F600 M3 S1000
G1 X22.005 Y55.361 F600 M3 S1000
G1 X21.924 Y55.381 F600 M3 S1000
G1 X21.832 Y55.403 F600 M3 S1000
G1 X21.732 Y55.426 F600 M3 S1000
G1 X21.629 Y55.451 F600 M3 S1000
G1 X21.454 Y55.485 F600 M3 S1000
G1 X21.253 Y55.510 F600 M3 S1000
G1 X21.030 Y55.528 F600 M3 S1000
G1 X20.793 Y55.537 F600 M3 S1000
G1 X20.548 Y55.538 F600 M3 S1000
G1 X20.301 Y55.530 F600 M3 S1000
G1 X20.059 Y55.514 F600 M3 S1000
G1 X19.828 Y55.489 F600 M3 S1000
G1 X19.614 Y55.455 F600 M3 S1000
G1 X19.614 Y55.455 F600 M3 S1000 ; Close path
M5 ; Laser off
M5 ; Laser off
G0 X20.794 Y52.438 ; Move to hatch start
G1 X21.805 Y53.449 F600 M3 S1000
M5 ; Laser off
G0 X18.631 Y51.972 ; Move to hatch start
G1 X20.263 Y53.604 F600 M3 S1000
M5 ; Laser off
G0 X15.444 Y50.482 ; Move to hatch start
G1 X18.008 Y53.046 F600 M3 S1000
M5 ; Laser off
G0 X21.756 Y52.480 ; Move to hatch start
G1 X20.627 Y53.609 F600 M3 S1000
M5 ; Laser off
G0 X20.180 Y52.360 ; Move to hatch start
G1 X19.126 Y53.413 F600 M3 S1000
M5 ; Laser off
G0 X18.807 Y52.035 ; Move to hatch start
G1 X17.853 Y52.989 F600 M3 S1000
M5 ; Laser off
G0 X17.589 Y51.556 ; Move to hatch start
G1 X16.663 Y52.482 F600 M3 S1000
M5 ; Laser off
G0 X16.445 Y51.003 ; Move to hatch start
G1 X15.545 Y51.904 F600 M3 S1000
M5 ; Laser off
G0 X15.329 Y50.422 ; Move to hatch start
G1 X14.532 Y51.219 F600 M3 S1000
M5 ; Laser off
G0 X19.570 Y53.528 ; Move to path start
G1 X19.251 Y53.449 F600 M3 S1000
G1 X18.917 Y53.354 F600 M3 S1000
G1 X18.570 Y53.245 F600 M3 S1000
G1 X18.215 Y53.123 F600 M3 S1000
G1 X17.855 Y52.989 F600 M3 S1000
G1 X17.492 Y52.846 F600 M3 S1000
G1 X17.132 Y52.694 F600 M3 S1000
G1 X16.776 Y52.535 F600 M3 S1000
G1 X16.428 Y52.371 F600 M3 S1000
G1 X16.092 Y52.202 F600 M3 S1000
G1 X15.770 Y52.031 F600 M3 S1000
G1 X15.468 Y51.860 F600 M3 S1000
G1 X15.186 Y51.689 F600 M3 S1000
G1 X14.931 Y51.520 F600 M3 S1000
G1 X14.703 Y51.355 F600 M3 S1000
G1 X14.580 Y51.258 F600 M3 S1000
G1 X14.460 Y51.159 F600 M3 S1000
G1 X14.346 Y51.062 F600 M3 S1000
G1 X14.241 Y50.969 F600 M3 S1000
G1 X14.149 Y50.882 F600 M3 S1000
G1 X14.072 Y50.805 F600 M3 S1000
G1 X14.013 Y50.740 F600 M3 S1000
G1 X13.976 Y50.690 F600 M3 S1000
G1 X13.963 Y50.658 F600 M3 S1000
G1 X13.969 Y50.640 F600 M3 S1000
G1 X13.988 Y50.627 F600 M3 S1000
G1 X14.023 Y50.618 F600 M3 S1000
G1 X14.077 Y50.614 F600 M3 S1000
G1 X14.153 Y50.614 F600 M3 S1000
G1 X14.252 Y50.617 F600 M3 S1000
G1 X14.379 Y50.623 F600 M3 S1000
G1 X14.510 Y50.631 F600 M3 S1000
G1 X14.614 Y50.635 F600 M3 S1000
G1 X14.697 Y50.634 F600 M3 S1000
G1 X14.767 Y50.627 F600 M3 S1000
G1 X14.830 Y50.613 F600 M3 S1000
G1 X14.892 Y50.592 F600 M3 S1000
G1 X14.960 Y50.562 F600 M3 S1000
G1 X15.040 Y50.522 F600 M3 S1000
G1 X15.286 Y50.400 F600 M3 S1000
G1 X15.689 Y50.610 F600 M3 S1000
G1 X15.950 Y50.746 F600 M3 S1000
G1 X16.186 Y50.869 F600 M3 S1000
G1 X16.400 Y50.980 F600 M3 S1000
G1 X16.595 Y51.080 F600 M3 S1000
G1 X16.773 Y51.171 F600 M3 S1000
G1 X16.938 Y51.253 F600 M3 S1000
G1 X17.093 Y51.328 F600 M3 S1000
G1 X17.241 Y51.398 F600 M3 S1000
G1 X17.383 Y51.464 F600 M3 S1000
G1 X17.525 Y51.528 F600 M3 S1000
G1 X17.667 Y51.589 F600 M3 S1000
G1 X17.813 Y51.651 F600 M3 S1000
G1 X17.966 Y51.714 F600 M3 S1000
G1 X18.129 Y51.780 F600 M3 S1000
G1 X18.305 Y51.849 F600 M3 S1000
G1 X18.497 Y51.924 F600 M3 S1000
G1 X18.794 Y52.031 F600 M3 S1000
G1 X19.113 Y52.128 F600 M3 S1000
G1 X19.449 Y52.215 F600 M3 S1000
G1 X19.796 Y52.291 F600 M3 S1000
G1 X20.150 Y52.356 F600 M3 S1000
G1 X20.507 Y52.407 F600 M3 S1000
G1 X20.860 Y52.445 F600 M3 S1000
G1 X21.205 Y52.468 F600 M3 S1000
G1 X21.537 Y52.476 F600 M3 S1000
G1 X21.770 Y52.480 F600 M3 S1000
G1 X21.976 Y52.493 F600 M3 S1000
G1 X22.159 Y52.516 F600 M3 S1000
G1 X22.323 Y52.550 F600 M3 S1000
G1 X22.472 Y52.596 F600 M3 S1000
G1 X22.610 Y52.654 F600 M3 S1000
G1 X22.742 Y52.726 F600 M3 S1000
G1 X22.831 Y52.785 F600 M3 S1000
G1 X22.894 Y52.841 F600 M3 S1000
G1 X22.932 Y52.895 F600 M3 S1000
G1 X22.944 Y52.946 F600 M3 S1000
G1 X22.929 Y52.996 F600 M3 S1000
G1 X22.887 Y53.045 F600 M3 S1000
G1 X22.818 Y53.095 F600 M3 S1000
G1 X22.721 Y53.147 F600 M3 S1000
G1 X22.595 Y53.200 F600 M3 S1000
G1 X22.440 Y53.256 F600 M3 S1000
G1 X22.301 Y53.303 F600 M3 S1000
G1 X22.174 Y53.344 F600 M3 S1000
G1 X22.051 Y53.381 F600 M3 S1000
G1 X21.926 Y53.416 F600 M3 S1000
G1 X21.793 Y53.452 F600 M3 S1000
G1 X21.645 Y53.490 F600 M3 S1000
G1 X21.476 Y53.532 F600 M3 S1000
G1 X21.324 Y53.560 F600 M3 S1000
G1 X21.147 Y53.582 F600 M3 S1000
G1 X20.952 Y53.598 F600 M3 S1000
G1 X20.744 Y53.607 F600 M3 S1000
G1 X20.530 Y53.610 F600 M3 S1000
G1 X20.315 Y53.607 F600 M3 S1000
G1 X20.106 Y53.597 F600 M3 S1000
G1 X19.908 Y53.580 F600 M3 S1000
G1 X19.727 Y53.557 F600 M3 S1000
G1 X19.570 Y53.528 F600 M3 S1000
G1 X19.570 Y53.528 F600 M3 S1000 ; Close path
M5 ; Laser off
M5 ; Laser off
G0 X31.349 Y50.522 ; Move to hatch start
G1 X32.221 Y51.393 F600 M3 S1000
M5 ; Laser off
G0 X30.245 Y51.114 ; Move to hatch start
G1 X31.174 Y52.044 F600 M3 S1000
M5 ; Laser off
G0 X29.089 Y51.655 ; Move to hatch start
G1 X30.024 Y52.591 F600 M3 S1000
M5 ; Laser off
G0 X27.835 Y52.099 ; Move to hatch start
G1 X28.816 Y53.080 F600 M3 S1000
M5 ; Laser off
G0 X26.430 Y52.391 ; Move to hatch start
G1 X27.495 Y53.456 F600 M3 S1000
M5 ; Laser off
G0 X24.871 Y52.529 ; Move to hatch start
G1 X25.937 Y53.595 F600 M3 S1000
M5 ; Laser off
G0 X31.673 Y50.418 ; Move to hatch start
G1 X29.121 Y52.970 F600 M3 S1000
M5 ; Laser off
G0 X28.525 Y51.869 ; Move to hatch start
G1 X26.837 Y53.557 F600 M3 S1000
M5 ; Laser off
G0 X26.291 Y52.406 ; Move to hatch start
G1 X25.234 Y53.463 F600 M3 S1000
M5 ; Laser off
G0 X24.309 Y52.691 ; Move to hatch start
G1 X24.064 Y52.936 F600 M3 S1000
M5 ; Laser off
G0 X25.923 Y53.593 ; Move to path start
G1 X25.886 Y53.586 F600 M3 S1000
G1 X25.824 Y53.575 F600 M3 S1000
G1 X25.741 Y53.561 F600 M3 S1000
G1 X25.645 Y53.545 F600 M3 S1000
G1 X25.541 Y53.528 F600 M3 S1000
G1 X25.435 Y53.508 F600 M3 S1000
G1 X25.313 Y53.482 F600 M3 S1000
G1 X25.180 Y53.450 F600 M3 S1000
G1 X25.039 Y53.414 F600 M3 S1000
G1 X24.895 Y53.374 F600 M3 S1000
G1 X24.752 Y53.333 F600 M3 S1000
G1 X24.615 Y53.291 F600 M3 S1000
G1 X24.486 Y53.250 F600 M3 S1000
G1 X24.370 Y53.210 F600 M3 S1000
G1 X24.272 Y53.174 F600 M3 S1000
G1 X24.195 Y53.142 F600 M3 S1000
G1 X24.144 Y53.116 F600 M3 S1000
G1 X24.086 Y53.070 F600 M3 S1000
G1 X24.054 Y53.026 F600 M3 S1000
G1 X24.048 Y52.979 F600 M3 S1000
G1 X24.067 Y52.927 F600 M3 S1000
G1 X24.114 Y52.864 F600 M3 S1000
G1 X24.188 Y52.787 F600 M3 S1000
G1 X24.245 Y52.737 F600 M3 S1000
G1 X24.307 Y52.692 F600 M3 S1000
G1 X24.375 Y52.654 F600 M3 S1000
G1 X24.453 Y52.620 F600 M3 S1000
G1 X24.543 Y52.591 F600 M3 S1000
G1 X24.648 Y52.565 F600 M3 S1000
G1 X24.769 Y52.543 F600 M3 S1000
G1 X24.910 Y52.524 F600 M3 S1000
G1 X25.073 Y52.506 F600 M3 S1000
G1 X25.261 Y52.491 F600 M3 S1000
G1 X25.476 Y52.476 F600 M3 S1000
G1 X25.811 Y52.452 F600 M3 S1000
G1 X26.120 Y52.425 F600 M3 S1000
G1 X26.408 Y52.393 F600 M3 S1000
G1 X26.679 Y52.357 F600 M3 S1000
G1 X26.939 Y52.315 F600 M3 S1000
G1 X27.191 Y52.265 F600 M3 S1000
G1 X27.441 Y52.208 F600 M3 S1000
G1 X27.692 Y52.141 F600 M3 S1000
G1 X27.951 Y52.064 F600 M3 S1000
G1 X28.221 Y51.976 F600 M3 S1000
G1 X28.507 Y51.876 F600 M3 S1000
G1 X28.814 Y51.762 F600 M3 S1000
G1 X29.093 Y51.654 F600 M3 S1000
G1 X29.357 Y51.545 F600 M3 S1000
G1 X29.611 Y51.432 F600 M3 S1000
G1 X29.861 Y51.313 F600 M3 S1000
G1 X30.113 Y51.185 F600 M3 S1000
G1 X30.372 Y51.045 F600 M3 S1000
G1 X30.645 Y50.890 F600 M3 S1000
G1 X30.869 Y50.765 F600 M3 S1000
G1 X31.067 Y50.658 F600 M3 S1000
G1 X31.240 Y50.572 F600 M3 S1000
G1 X31.388 Y50.504 F600 M3 S1000
G1 X31.511 Y50.456 F600 M3 S1000
G1 X31.609 Y50.427 F600 M3 S1000
G1 X31.683 Y50.417 F600 M3 S1000
G1 X31.736 Y50.425 F600 M3 S1000
G1 X31.803 Y50.445 F600 M3 S1000
G1 X31.876 Y50.474 F600 M3 S1000
G1 X31.946 Y50.509 F600 M3 S1000
G1 X32.049 Y50.555 F600 M3 S1000
G1 X32.178 Y50.588 F600 M3 S1000
G1 X32.331 Y50.607 F600 M3 S1000
G1 X32.501 Y50.612 F600 M3 S1000
G1 X32.686 Y50.603 F600 M3 S1000
G1 X32.879 Y50.579 F600 M3 S1000
G1 X32.968 Y50.565 F600 M3 S1000
G1 X33.030 Y50.558 F600 M3 S1000
G1 X33.071 Y50.559 F600 M3 S1000
G1 X33.094 Y50.569 F600 M3 S1000
G1 X33.105 Y50.589 F600 M3 S1000
G1 X33.107 Y50.619 F600 M3 S1000
G1 X33.102 Y50.652 F600 M3 S1000
G1 X33.083 Y50.691 F600 M3 S1000
G1 X33.050 Y50.735 F600 M3 S1000
G1 X33.000 Y50.788 F600 M3 S1000
G1 X32.931 Y50.851 F600 M3 S1000
G1 X32.842 Y50.927 F600 M3 S1000
G1 X32.729 Y51.016 F600 M3 S1000
G1 X32.592 Y51.122 F600 M3 S1000
G1 X32.428 Y51.245 F600 M3 S1000
G1 X32.059 Y51.508 F600 M3 S1000
G1 X31.690 Y51.749 F600 M3 S1000
G1 X31.314 Y51.970 F600 M3 S1000
G1 X30.927 Y52.175 F600 M3 S1000
G1 X30.523 Y52.367 F600 M3 S1000
G1 X30.413 Y52.415 F600 M3 S1000
G1 X30.296 Y52.468 F600 M3 S1000
G1 X30.176 Y52.522 F600 M3 S1000
G1 X30.060 Y52.575 F600 M3 S1000
G1 X29.955 Y52.623 F600 M3 S1000
G1 X29.865 Y52.664 F600 M3 S1000
G1 X29.566 Y52.795 F600 M3 S1000
G1 X29.253 Y52.921 F600 M3 S1000
G1 X28.934 Y53.040 F600 M3 S1000
G1 X28.611 Y53.151 F600 M3 S1000
G1 X28.291 Y53.251 F600 M3 S1000
G1 X27.977 Y53.340 F600 M3 S1000
G1 X27.676 Y53.417 F600 M3 S1000
G1 X27.391 Y53.478 F600 M3 S1000
G1 X27.127 Y53.523 F600 M3 S1000
G1 X27.025 Y53.537 F600 M3 S1000
G1 X26.906 Y53.551 F600 M3 S1000
G1 X26.776 Y53.563 F600 M3 S1000
G1 X26.640 Y53.574 F600 M3 S1000
G1 X26.502 Y53.584 F600 M3 S1000
G1 X26.368 Y53.591 F600 M3 S1000
G1 X26.243 Y53.597 F600 M3 S1000
G1 X26.131 Y53.600 F600 M3 S1000
G1 X26.037 Y53.601 F600 M3 S1000
G1 X25.966 Y53.599 F600 M3 S1000
G1 X25.923 Y53.593 F600 M3 S1000
G1 X25.923 Y53.593 F600 M3 S1000 ; Close path
M5 ; Laser off
M5 ; Laser off
G0 X19.672 Y49.042 ; Move to hatch start
G1 X21.361 Y50.731 F600 M3 S1000
M5 ; Laser off
G0 X17.303 Y48.370 ; Move to hatch start
G1 X19.631 Y50.698 F600 M3 S1000
M5 ; Laser off
G0 X22.614 Y50.339 ; Move to hatch start
G1 X22.205 Y50.749 F600 M3 S1000
M5 ; Laser off
G0 X21.705 Y49.552 ; Move to hatch start
G1 X20.499 Y50.757 F600 M3 S1000
M5 ; Laser off
G0 X20.380 Y49.179 ; Move to hatch start
G1 X19.003 Y50.557 F600 M3 S1000
M5 ; Laser off
G0 X18.967 Y48.896 ; Move to hatch start
G1 X17.758 Y50.105 F600 M3 S1000
M5 ; Laser off
G0 X17.653 Y48.512 ; Move to hatch start
G1 X16.732 Y49.433 F600 M3 S1000
M5 ; Laser off
G0 X16.514 Y47.954 ; Move to hatch start
G1 X15.902 Y48.567 F600 M3 S1000
M5 ; Laser off
G0 X15.514 Y47.257 ; Move to hatch start
G1 X15.342 Y47.429 F600 M3 S1000
M5 ; Laser off
G0 X22.795 Y51.210 ; Move to path start
G1 X22.707 Y51.126 F600 M3 S1000
G1 X22.613 Y51.042 F600 M3 S1000
G1 X22.518 Y50.962 F600 M3 S1000
G1 X22.427 Y50.891 F600 M3 S1000
G1 X22.345 Y50.832 F600 M3 S1000
G1 X22.278 Y50.789 F600 M3 S1000
G1 X22.063 Y50.671 F600 M3 S1000
G1 X21.450 Y50.724 F600 M3 S1000
G1 X21.248 Y50.740 F600 M3 S1000
G1 X21.037 Y50.751 F600 M3 S1000
G1 X20.822 Y50.757 F600 M3 S1000
G1 X20.606 Y50.759 F600 M3 S1000
G1 X20.393 Y50.756 F600 M3 S1000
G1 X20.188 Y50.749 F600 M3 S1000
G1 X19.994 Y50.738 F600 M3 S1000
G1 X19.817 Y50.722 F600 M3 S1000
G1 X19.660 Y50.703 F600 M3 S1000
G1 X19.526 Y50.680 F600 M3 S1000
G1 X19.122 Y50.589 F600 M3 S1000
G1 X18.743 Y50.486 F600 M3 S1000
G1 X18.387 Y50.370 F600 M3 S1000
G1 X18.053 Y50.240 F600 M3 S1000
G1 X17.737 Y50.095 F600 M3 S1000
G1 X17.438 Y49.934 F600 M3 S1000
G1 X17.154 Y49.755 F600 M3 S1000
G1 X16.882 Y49.557 F600 M3 S1000
G1 X16.621 Y49.340 F600 M3 S1000
G1 X16.368 Y49.103 F600 M3 S1000
G1 X16.190 Y48.917 F600 M3 S1000
G1 X16.032 Y48.735 F600 M3 S1000
G1 X15.891 Y48.553 F600 M3 S1000
G1 X15.765 Y48.365 F600 M3 S1000
G1 X15.651 Y48.168 F600 M3 S1000
G1 X15.547 Y47.956 F600 M3 S1000
G1 X15.449 Y47.726 F600 M3 S1000
G1 X15.356 Y47.473 F600 M3 S1000
G1 X15.321 Y47.363 F600 M3 S1000
G1 X15.300 Y47.277 F600 M3 S1000
G1 X15.294 Y47.215 F600 M3 S1000
G1 X15.304 Y47.177 F600 M3 S1000
G1 X15.331 Y47.162 F600 M3 S1000
G1 X15.374 Y47.171 F600 M3 S1000
G1 X15.434 Y47.202 F600 M3 S1000
G1 X15.513 Y47.256 F600 M3 S1000
G1 X15.610 Y47.333 F600 M3 S1000
G1 X15.805 Y47.483 F600 M3 S1000
G1 X16.020 Y47.637 F600 M3 S1000
G1 X16.250 Y47.790 F600 M3 S1000
G1 X16.489 Y47.939 F600 M3 S1000
G1 X16.732 Y48.081 F600 M3 S1000
G1 X16.972 Y48.211 F600 M3 S1000
G1 X17.205 Y48.326 F600 M3 S1000
G1 X17.424 Y48.424 F600 M3 S1000
G1 X17.562 Y48.479 F600 M3 S1000
G1 X17.722 Y48.537 F600 M3 S1000
G1 X17.897 Y48.598 F600 M3 S1000
G1 X18.083 Y48.658 F600 M3 S1000
G1 X18.275 Y48.717 F600 M3 S1000
G1 X18.465 Y48.772 F600 M3 S1000
G1 X18.650 Y48.822 F600 M3 S1000
G1 X18.739 Y48.844 F600 M3 S1000
G1 X18.851 Y48.870 F600 M3 S1000
G1 X18.984 Y48.899 F600 M3 S1000
G1 X19.134 Y48.931 F600 M3 S1000
G1 X19.297 Y48.966 F600 M3 S1000
G1 X19.470 Y49.001 F600 M3 S1000
G1 X19.649 Y49.037 F600 M3 S1000
G1 X19.831 Y49.074 F600 M3 S1000
G1 X20.011 Y49.109 F600 M3 S1000
G1 X20.186 Y49.143 F600 M3 S1000
G1 X20.353 Y49.174 F600 M3 S1000
G1 X20.508 Y49.203 F600 M3 S1000
G1 X20.647 Y49.228 F600 M3 S1000
G1 X20.766 Y49.249 F600 M3 S1000
G1 X20.863 Y49.265 F600 M3 S1000
G1 X20.933 Y49.275 F600 M3 S1000
G1 X20.972 Y49.278 F600 M3 S1000
G1 X21.076 Y49.288 F600 M3 S1000
G1 X21.196 Y49.318 F600 M3 S1000
G1 X21.330 Y49.366 F600 M3 S1000
G1 X21.473 Y49.428 F600 M3 S1000
G1 X21.622 Y49.504 F600 M3 S1000
G1 X21.774 Y49.592 F600 M3 S1000
G1 X21.925 Y49.689 F600 M3 S1000
G1 X22.072 Y49.793 F600 M3 S1000
G1 X22.211 Y49.902 F600 M3 S1000
G1 X22.339 Y50.014 F600 M3 S1000
G1 X22.453 Y50.128 F600 M3 S1000
G1 X22.535 Y50.228 F600 M3 S1000
G1 X22.622 Y50.351 F600 M3 S1000
G1 X22.710 Y50.490 F600 M3 S1000
G1 X22.795 Y50.641 F600 M3 S1000
G1 X22.873 Y50.798 F600 M3 S1000
G1 X22.932 Y50.915 F600 M3 S1000
G1 X22.986 Y51.025 F600 M3 S1000
G1 X23.034 Y51.124 F600 M3 S1000
G1 X23.075 Y51.206 F600 M3 S1000
G1 X23.105 Y51.267 F600 M3 S1000
G1 X23.123 Y51.302 F600 M3 S1000
G1 X23.147 Y51.361 F600 M3 S1000
G1 X23.159 Y51.418 F600 M3 S1000
G1 X23.161 Y51.466 F600 M3 S1000
G1 X23.150 Y51.500 F600 M3 S1000
G1 X23.128 Y51.512 F600 M3 S1000
G1 X23.108 Y51.501 F600 M3 S1000
G1 X23.070 Y51.471 F600 M3 S1000
G1 X23.017 Y51.424 F600 M3 S1000
G1 X22.951 Y51.362 F600 M3 S1000
G1 X22.876 Y51.290 F600 M3 S1000
G1 X22.795 Y51.210 F600 M3 S1000
G1 X22.795 Y51.210 F600 M3 S1000 ; Close path
M5 ; Laser off
M5 ; Laser off
G0 X30.670 Y47.825 ; Move to hatch start
G1 X31.206 Y48.362 F600 M3 S1000
M5 ; Laser off
G0 X29.539 Y48.391 ; Move to hatch start
G1 X30.413 Y49.265 F600 M3 S1000
M5 ; Laser off
G0 X28.260 Y48.810 ; Move to hatch start
G1 X29.418 Y49.968 F600 M3 S1000
M5 ; Laser off
G0 X26.884 Y49.131 ; Move to hatch start
G1 X28.252 Y50.499 F600 M3 S1000
M5 ; Laser off
G0 X25.516 Y49.460 ; Move to hatch start
G1 X26.799 Y50.743 F600 M3 S1000
M5 ; Laser off
G0 X24.562 Y50.202 ; Move to hatch start
G1 X25.007 Y50.647 F600 M3 S1000
M5 ; Laser off
G0 X29.634 Y48.353 ; Move to hatch start
G1 X27.271 Y50.716 F600 M3 S1000
M5 ; Laser off
G0 X27.233 Y49.057 ; Move to hatch start
G1 X25.583 Y50.707 F600 M3 S1000
M5 ; Laser off
G0 X23.969 Y51.280 ; Move to path start
G1 X23.966 Y51.232 F600 M3 S1000
G1 X23.982 Y51.162 F600 M3 S1000
G1 X24.015 Y51.073 F600 M3 S1000
G1 X24.064 Y50.970 F600 M3 S1000
G1 X24.126 Y50.854 F600 M3 S1000
G1 X24.198 Y50.729 F600 M3 S1000
G1 X24.280 Y50.598 F600 M3 S1000
G1 X24.369 Y50.465 F600 M3 S1000
G1 X24.463 Y50.333 F600 M3 S1000
G1 X24.560 Y50.204 F600 M3 S1000
G1 X24.658 Y50.083 F600 M3 S1000
G1 X24.755 Y49.972 F600 M3 S1000
G1 X24.849 Y49.874 F600 M3 S1000
G1 X24.929 Y49.800 F600 M3 S1000
G1 X25.009 Y49.732 F600 M3 S1000
G1 X25.091 Y49.671 F600 M3 S1000
G1 X25.178 Y49.615 F600 M3 S1000
G1 X25.271 Y49.563 F600 M3 S1000
G1 X25.374 Y49.515 F600 M3 S1000
G1 X25.488 Y49.469 F600 M3 S1000
G1 X25.617 Y49.425 F600 M3 S1000
G1 X25.761 Y49.382 F600 M3 S1000
G1 X25.924 Y49.338 F600 M3 S1000
G1 X26.108 Y49.294 F600 M3 S1000
G1 X26.315 Y49.248 F600 M3 S1000
G1 X26.547 Y49.199 F600 M3 S1000
G1 X26.808 Y49.147 F600 M3 S1000
G1 X27.316 Y49.040 F600 M3 S1000
G1 X27.793 Y48.930 F600 M3 S1000
G1 X28.239 Y48.816 F600 M3 S1000
G1 X28.656 Y48.697 F600 M3 S1000
G1 X29.044 Y48.574 F600 M3 S1000
G1 X29.407 Y48.444 F600 M3 S1000
G1 X29.743 Y48.310 F600 M3 S1000
G1 X30.055 Y48.168 F600 M3 S1000
G1 X30.344 Y48.020 F600 M3 S1000
G1 X30.611 Y47.864 F600 M3 S1000
G1 X30.858 Y47.700 F600 M3 S1000
G1 X31.085 Y47.527 F600 M3 S1000
G1 X31.294 Y47.346 F600 M3 S1000
G1 X31.371 Y47.277 F600 M3 S1000
G1 X31.444 Y47.215 F600 M3 S1000
G1 X31.510 Y47.164 F600 M3 S1000
G1 X31.565 Y47.126 F600 M3 S1000
G1 X31.606 Y47.104 F600 M3 S1000
G1 X31.631 Y47.101 F600 M3 S1000
G1 X31.667 Y47.127 F600 M3 S1000
G1 X31.688 Y47.176 F600 M3 S1000
G1 X31.693 Y47.245 F600 M3 S1000
G1 X31.683 Y47.332 F600 M3 S1000
G1 X31.659 Y47.435 F600 M3 S1000
G1 X31.622 Y47.552 F600 M3 S1000
G1 X31.573 Y47.681 F600 M3 S1000
G1 X31.512 Y47.819 F600 M3 S1000
G1 X31.440 Y47.964 F600 M3 S1000
G1 X31.358 Y48.115 F600 M3 S1000
G1 X31.266 Y48.269 F600 M3 S1000
G1 X31.166 Y48.424 F600 M3 S1000
G1 X31.063 Y48.565 F600 M3 S1000
G1 X30.939 Y48.717 F600 M3 S1000
G1 X30.800 Y48.875 F600 M3 S1000
G1 X30.649 Y49.034 F600 M3 S1000
G1 X30.492 Y49.191 F600 M3 S1000
G1 X30.333 Y49.340 F600 M3 S1000
G1 X30.176 Y49.476 F600 M3 S1000
G1 X30.026 Y49.596 F600 M3 S1000
G1 X29.887 Y49.694 F600 M3 S1000
G1 X29.752 Y49.779 F600 M3 S1000
G1 X29.595 Y49.870 F600 M3 S1000
G1 X29.422 Y49.966 F600 M3 S1000
G1 X29.240 Y50.062 F600 M3 S1000
G1 X29.053 Y50.157 F600 M3 S1000
G1 X28.867 Y50.246 F600 M3 S1000
G1 X28.689 Y50.328 F600 M3 S1000
G1 X28.523 Y50.399 F600 M3 S1000
G1 X28.376 Y50.457 F600 M3 S1000
G1 X28.175 Y50.525 F600 M3 S1000
G1 X27.986 Y50.583 F600 M3 S1000
G1 X27.801 Y50.631 F600 M3 S1000
G1 X27.618 Y50.669 F600 M3 S1000
G1 X27.430 Y50.699 F600 M3 S1000
G1 X27.233 Y50.720 F600 M3 S1000
G1 X27.022 Y50.735 F600 M3 S1000
G1 X26.791 Y50.743 F600 M3 S1000
G1 X26.536 Y50.746 F600 M3 S1000
G1 X26.344 Y50.744 F600 M3 S1000
G1 X26.153 Y50.740 F600 M3 S1000
G1 X25.967 Y50.733 F600 M3 S1000
G1 X25.792 Y50.723 F600 M3 S1000
G1 X25.634 Y50.712 F600 M3 S1000
G1 X25.497 Y50.699 F600 M3 S1000
G1 X25.388 Y50.684 F600 M3 S1000
G1 X25.274 Y50.666 F600 M3 S1000
G1 X25.184 Y50.653 F600 M3 S1000
G1 X25.111 Y50.645 F600 M3 S1000
G1 X25.052 Y50.643 F600 M3 S1000
G1 X25.000 Y50.648 F600 M3 S1000
G1 X24.951 Y50.659 F600 M3 S1000
G1 X24.900 Y50.677 F600 M3 S1000
G1 X24.841 Y50.703 F600 M3 S1000
G1 X24.770 Y50.737 F600 M3 S1000
G1 X24.684 Y50.787 F600 M3 S1000
G1 X24.581 Y50.854 F600 M3 S1000
G1 X24.472 Y50.933 F600 M3 S1000
G1 X24.364 Y51.017 F600 M3 S1000
G1 X24.267 Y51.100 F600 M3 S1000
G1 X24.175 Y51.181 F600 M3 S1000
G1 X24.103 Y51.240 F600 M3 S1000
G1 X24.049 Y51.277 F600 M3 S1000
G1 X24.010 Y51.296 F600 M3 S1000
G1 X23.984 Y51.296 F600 M3 S1000
G1 X23.969 Y51.280 F600 M3 S1000
G1 X23.969 Y51.280 F600 M3 S1000 ; Close path
M5 ; Laser off
M5 ; Laser off
G0 X16.654 Y43.063 ; Move to hatch start
G1 X17.175 Y43.584 F600 M3 S1000
M5 ; Laser off
G0 X19.434 Y45.843 ; Move to hatch start
G1 X20.931 Y47.340 F600 M3 S1000
M5 ; Laser off
G0 X16.450 Y44.556 ; Move to hatch start
G1 X19.019 Y47.125 F600 M3 S1000
M5 ; Laser off
G0 X22.705 Y47.551 ; Move to hatch start
G1 X22.310 Y47.945 F600 M3 S1000
M5 ; Laser off
G0 X21.885 Y46.673 ; Move to hatch start
G1 X21.206 Y47.353 F600 M3 S1000
M5 ; Laser off
G0 X20.684 Y46.177 ; Move to hatch start
G1 X19.608 Y47.253 F600 M3 S1000
M5 ; Laser off
G0 X19.351 Y45.813 ; Move to hatch start
G1 X18.300 Y46.864 F600 M3 S1000
M5 ; Laser off
G0 X18.268 Y45.199 ; Move to hatch start
G1 X17.281 Y46.186 F600 M3 S1000
M5 ; Laser off
G0 X17.485 Y44.286 ; Move to hatch start
G1 X16.576 Y45.195 F600 M3 S1000
M5 ; Laser off
G0 X17.053 Y43.021 ; Move to hatch start
G1 X16.487 Y43.586 F600 M3 S1000
M5 ; Laser off
G0 X22.484 Y48.117 ; Move to path start
G1 X22.371 Y48.005 F600 M3 S1000
G1 X22.260 Y47.896 F600 M3 S1000
G1 X22.153 Y47.795 F600 M3 S1000
G1 X22.052 Y47.701 F600 M3 S1000
G1 X21.960 Y47.617 F600 M3 S1000
G1 X21.878 Y47.546 F600 M3 S1000
G1 X21.808 Y47.489 F600 M3 S1000
G1 X21.754 Y47.448 F600 M3 S1000
G1 X21.717 Y47.425 F600 M3 S1000
G1 X21.667 Y47.408 F600 M3 S1000
G1 X21.600 Y47.393 F600 M3 S1000
G1 X21.514 Y47.379 F600 M3 S1000
G1 X21.407 Y47.367 F600 M3 S1000
G1 X21.275 Y47.357 F600 M3 S1000
G1 X21.117 Y47.348 F600 M3 S1000
G1 X20.929 Y47.340 F600 M3 S1000
G1 X20.709 Y47.333 F600 M3 S1000
G1 X20.452 Y47.325 F600 M3 S1000
G1 X20.221 Y47.314 F600 M3 S1000
G1 X20.013 Y47.300 F600 M3 S1000
G1 X19.824 Y47.282 F600 M3 S1000
G1 X19.647 Y47.259 F600 M3 S1000
G1 X19.479 Y47.232 F600 M3 S1000
G1 X19.315 Y47.199 F600 M3 S1000
G1 X19.150 Y47.160 F600 M3 S1000
G1 X18.979 Y47.114 F600 M3 S1000
G1 X18.656 Y47.011 F600 M3 S1000
G1 X18.350 Y46.889 F600 M3 S1000
G1 X18.062 Y46.748 F600 M3 S1000
G1 X17.793 Y46.590 F600 M3 S1000
G1 X17.544 Y46.414 F600 M3 S1000
G1 X17.315 Y46.221 F600 M3 S1000
G1 X17.107 Y46.012 F600 M3 S1000
G1 X16.921 Y45.786 F600 M3 S1000
G1 X16.758 Y45.546 F600 M3 S1000
G1 X16.680 Y45.413 F600 M3 S1000
G1 X16.615 Y45.288 F600 M3 S1000
G1 X16.563 Y45.165 F600 M3 S1000
G1 X16.522 Y45.041 F600 M3 S1000
G1 X16.490 Y44.910 F600 M3 S1000
G1 X16.468 Y44.769 F600 M3 S1000
G1 X16.453 Y44.614 F600 M3 S1000
G1 X16.445 Y44.439 F600 M3 S1000
G1 X16.442 Y44.240 F600 M3 S1000
G1 X16.445 Y44.031 F600 M3 S1000
G1 X16.454 Y43.847 F600 M3 S1000
G1 X16.471 Y43.682 F600 M3 S1000
G1 X16.497 Y43.530 F600 M3 S1000
G1 X16.532 Y43.387 F600 M3 S1000
G1 X16.577 Y43.247 F600 M3 S1000
G1 X16.635 Y43.104 F600 M3 S1000
G1 X16.705 Y42.952 F600 M3 S1000
G1 X16.761 Y42.841 F600 M3 S1000
G1 X16.809 Y42.754 F600 M3 S1000
G1 X16.852 Y42.692 F600 M3 S1000
G1 X16.888 Y42.656 F600 M3 S1000
G1 X16.920 Y42.645 F600 M3 S1000
G1 X16.949 Y42.660 F600 M3 S1000
G1 X16.975 Y42.702 F600 M3 S1000
G1 X17.000 Y42.771 F600 M3 S1000
G1 X17.024 Y42.867 F600 M3 S1000
G1 X17.048 Y42.992 F600 M3 S1000
G1 X17.073 Y43.145 F600 M3 S1000
G1 X17.130 Y43.430 F600 M3 S1000
G1 X17.211 Y43.704 F600 M3 S1000
G1 X17.315 Y43.967 F600 M3 S1000
G1 X17.443 Y44.219 F600 M3 S1000
G1 X17.595 Y44.462 F600 M3 S1000
G1 X17.771 Y44.695 F600 M3 S1000
G1 X17.971 Y44.919 F600 M3 S1000
G1 X18.118 Y45.064 F600 M3 S1000
G1 X18.263 Y45.196 F600 M3 S1000
G1 X18.411 Y45.316 F600 M3 S1000
G1 X18.564 Y45.426 F600 M3 S1000
G1 X18.723 Y45.526 F600 M3 S1000
G1 X18.893 Y45.619 F600 M3 S1000
G1 X19.075 Y45.705 F600 M3 S1000
G1 X19.272 Y45.785 F600 M3 S1000
G1 X19.487 Y45.862 F600 M3 S1000
G1 X19.723 Y45.935 F600 M3 S1000
G1 X19.981 Y46.007 F600 M3 S1000
G1 X20.265 Y46.078 F600 M3 S1000
G1 X20.578 Y46.150 F600 M3 S1000
G1 X20.898 Y46.231 F600 M3 S1000
G1 X21.194 Y46.327 F600 M3 S1000
G1 X21.466 Y46.438 F600 M3 S1000
G1 X21.716 Y46.566 F600 M3 S1000
G1 X21.945 Y46.711 F600 M3 S1000
G1 X22.153 Y46.874 F600 M3 S1000
G1 X22.341 Y47.055 F600 M3 S1000
G1 X22.511 Y47.256 F600 M3 S1000
G1 X22.663 Y47.477 F600 M3 S1000
G1 X22.799 Y47.718 F600 M3 S1000
G1 X22.827 Y47.776 F600 M3 S1000
G1 X22.863 Y47.854 F600 M3 S1000
G1 X22.903 Y47.948 F600 M3 S1000
G1 X22.947 Y48.053 F600 M3 S1000
G1 X22.993 Y48.164 F600 M3 S1000
G1 X23.039 Y48.278 F600 M3 S1000
G1 X23.082 Y48.388 F600 M3 S1000
G1 X23.122 Y48.491 F600 M3 S1000
G1 X23.156 Y48.582 F600 M3 S1000
G1 X23.183 Y48.656 F600 M3 S1000
G1 X23.200 Y48.708 F600 M3 S1000
G1 X23.206 Y48.735 F600 M3 S1000
G1 X23.200 Y48.752 F600 M3 S1000
G1 X23.182 Y48.754 F600 M3 S1000
G1 X23.150 Y48.739 F600 M3 S1000
G1 X23.103 Y48.707 F600 M3 S1000
G1 X23.042 Y48.658 F600 M3 S1000
G1 X22.965 Y48.589 F600 M3 S1000
G1 X22.872 Y48.502 F600 M3 S1000
G1 X22.761 Y48.395 F600 M3 S1000
G1 X22.632 Y48.267 F600 M3 S1000
G1 X22.484 Y48.117 F600 M3 S1000
G1 X22.484 Y48.117 F600 M3 S1000 ; Close path
M5 ; Laser off
M5 ; Laser off
G0 X29.660 Y44.013 ; Move to hatch start
G1 X30.518 Y44.871 F600 M3 S1000
M5 ; Laser off
G0 X28.924 Y44.975 ; Move to hatch start
G1 X29.926 Y45.977 F600 M3 S1000
M5 ; Laser off
G0 X27.913 Y45.660 ; Move to hatch start
G1 X28.969 Y46.716 F600 M3 S1000
M5 ; Laser off
G0 X26.650 Y46.095 ; Move to hatch start
G1 X27.753 Y47.197 F600 M3 S1000
M5 ; Laser off
G0 X25.354 Y46.496 ; Move to hatch start
G1 X26.199 Y47.341 F600 M3 S1000
M5 ; Laser off
G0 X24.486 Y47.324 ; Move to hatch start
G1 X24.928 Y47.766 F600 M3 S1000
M5 ; Laser off
G0 X23.959 Y48.494 ; Move to hatch start
G1 X24.080 Y48.615 F600 M3 S1000
M5 ; Laser off
G0 X30.503 Y43.709 ; Move to hatch start
G1 X26.893 Y47.319 F600 M3 S1000
M5 ; Laser off
G0 X26.340 Y46.174 ; Move to hatch start
G1 X23.929 Y48.586 F600 M3 S1000
M5 ; Laser off
G0 X23.907 Y48.669 ; Move to path start
G1 X23.913 Y48.639 F600 M3 S1000
G1 X23.929 Y48.584 F600 M3 S1000
G1 X23.954 Y48.509 F600 M3 S1000
G1 X23.985 Y48.416 F600 M3 S1000
G1 X24.022 Y48.313 F600 M3 S1000
G1 X24.062 Y48.203 F600 M3 S1000
G1 X24.104 Y48.090 F600 M3 S1000
G1 X24.146 Y47.980 F600 M3 S1000
G1 X24.186 Y47.877 F600 M3 S1000
G1 X24.223 Y47.786 F600 M3 S1000
G1 X24.255 Y47.711 F600 M3 S1000
G1 X24.280 Y47.657 F600 M3 S1000
G1 X24.345 Y47.539 F600 M3 S1000
G1 X24.427 Y47.408 F600 M3 S1000
G1 X24.522 Y47.271 F600 M3 S1000
G1 X24.623 Y47.136 F600 M3 S1000
G1 X24.725 Y47.009 F600 M3 S1000
G1 X24.823 Y46.899 F600 M3 S1000
G1 X24.911 Y46.812 F600 M3 S1000
G1 X25.001 Y46.732 F600 M3 S1000
G1 X25.089 Y46.661 F600 M3 S1000
G1 X25.178 Y46.597 F600 M3 S1000
G1 X25.271 Y46.540 F600 M3 S1000
G1 X25.372 Y46.486 F600 M3 S1000
G1 X25.483 Y46.436 F600 M3 S1000
G1 X25.608 Y46.387 F600 M3 S1000
G1 X25.750 Y46.339 F600 M3 S1000
G1 X25.913 Y46.289 F600 M3 S1000
G1 X26.100 Y46.237 F600 M3 S1000
G1 X26.313 Y46.181 F600 M3 S1000
G1 X26.558 Y46.119 F600 M3 S1000
G1 X26.921 Y46.024 F600 M3 S1000
G1 X27.253 Y45.923 F600 M3 S1000
G1 X27.558 Y45.814 F600 M3 S1000
G1 X27.837 Y45.698 F600 M3 S1000
G1 X28.096 Y45.570 F600 M3 S1000
G1 X28.335 Y45.431 F600 M3 S1000
G1 X28.560 Y45.279 F600 M3 S1000
G1 X28.773 Y45.112 F600 M3 S1000
G1 X28.976 Y44.928 F600 M3 S1000
G1 X29.189 Y44.706 F600 M3 S1000
G1 X29.379 Y44.472 F600 M3 S1000
G1 X29.543 Y44.228 F600 M3 S1000
G1 X29.681 Y43.975 F600 M3 S1000
G1 X29.793 Y43.714 F600 M3 S1000
G1 X29.878 Y43.448 F600 M3 S1000
G1 X29.935 Y43.175 F600 M3 S1000
G1 X29.955 Y43.068 F600 M3 S1000
G1 X29.975 Y42.968 F600 M3 S1000
G1 X29.995 Y42.880 F600 M3 S1000
G1 X30.012 Y42.809 F600 M3 S1000
G1 X30.028 Y42.758 F600 M3 S1000
G1 X30.041 Y42.733 F600 M3 S1000
G1 X30.064 Y42.731 F600 M3 S1000
G1 X30.099 Y42.756 F600 M3 S1000
G1 X30.142 Y42.803 F600 M3 S1000
G1 X30.189 Y42.869 F600 M3 S1000
G1 X30.239 Y42.949 F600 M3 S1000
G1 X30.289 Y43.038 F600 M3 S1000
G1 X30.334 Y43.132 F600 M3 S1000
G1 X30.374 Y43.226 F600 M3 S1000
G1 X30.404 Y43.316 F600 M3 S1000
G1 X30.486 Y43.621 F600 M3 S1000
G1 X30.542 Y43.913 F600 M3 S1000
G1 X30.571 Y44.193 F600 M3 S1000
G1 X30.573 Y44.462 F600 M3 S1000
G1 X30.549 Y44.721 F600 M3 S1000
G1 X30.497 Y44.970 F600 M3 S1000
G1 X30.418 Y45.211 F600 M3 S1000
G1 X30.312 Y45.445 F600 M3 S1000
G1 X30.195 Y45.644 F600 M3 S1000
G1 X30.049 Y45.840 F600 M3 S1000
G1 X29.877 Y46.031 F600 M3 S1000
G1 X29.682 Y46.215 F600 M3 S1000
G1 X29.467 Y46.391 F600 M3 S1000
G1 X29.233 Y46.556 F600 M3 S1000
G1 X28.982 Y46.709 F600 M3 S1000
G1 X28.719 Y46.848 F600 M3 S1000
G1 X28.444 Y46.970 F600 M3 S1000
G1 X28.161 Y47.074 F600 M3 S1000
G1 X27.999 Y47.127 F600 M3 S1000
G1 X27.852 Y47.171 F600 M3 S1000
G1 X27.714 Y47.208 F600 M3 S1000
G1 X27.580 Y47.239 F600 M3 S1000
G1 X27.447 Y47.264 F600 M3 S1000
G1 X27.308 Y47.284 F600 M3 S1000
G1 X27.160 Y47.301 F600 M3 S1000
G1 X26.997 Y47.313 F600 M3 S1000
G1 X26.814 Y47.323 F600 M3 S1000
G1 X26.606 Y47.331 F600 M3 S1000
G1 X26.369 Y47.337 F600 M3 S1000
G1 X26.175 Y47.341 F600 M3 S1000
G1 X26.010 Y47.345 F600 M3 S1000
G1 X25.871 Y47.350 F600 M3 S1000
G1 X25.756 Y47.354 F600 M3 S1000
G1 X25.661 Y47.360 F600 M3 S1000
G1 X25.584 Y47.367 F600 M3 S1000
G1 X25.521 Y47.375 F600 M3 S1000
G1 X25.470 Y47.386 F600 M3 S1000
G1 X25.427 Y47.399 F600 M3 S1000
G1 X25.389 Y47.415 F600 M3 S1000
G1 X25.354 Y47.433 F600 M3 S1000
G1 X25.318 Y47.456 F600 M3 S1000
G1 X25.245 Y47.506 F600 M3 S1000
G1 X25.154 Y47.576 F600 M3 S1000
G1 X25.050 Y47.662 F600 M3 S1000
G1 X24.935 Y47.760 F600 M3 S1000
G1 X24.814 Y47.867 F600 M3 S1000
G1 X24.692 Y47.977 F600 M3 S1000
G1 X24.572 Y48.089 F600 M3 S1000
G1 X24.458 Y48.198 F600 M3 S1000
G1 X24.355 Y48.300 F600 M3 S1000
G1 X24.266 Y48.392 F600 M3 S1000
G1 X24.196 Y48.469 F600 M3 S1000
G1 X24.148 Y48.529 F600 M3 S1000
G1 X24.100 Y48.593 F600 M3 S1000
G1 X24.053 Y48.644 F600 M3 S1000
G1 X24.007 Y48.682 F600 M3 S1000
G1 X23.968 Y48.705 F600 M3 S1000
